<?xml version="1.0" encoding="UTF-8"?>
<map version="1.10" tiledversion="1.11.2" orientation="orthogonal" renderorder="right-down" width="20" height="15" tilewidth="16" tileheight="16" infinite="0" nextlayerid="6" nextobjectid="3">
 <editorsettings>
  <export target="ClassroomScene.tmj" format="json"/>
 </editorsettings>
 <tileset firstgid="1" name="floor" tilewidth="16" tileheight="16" tilecount="1" columns="1">
  <image source="../assets/tilesets/classroom/floor.png" width="16" height="16"/>
 </tileset>
 <tileset firstgid="2" name="wall" tilewidth="16" tileheight="16" tilecount="9" columns="3">
  <image source="../assets/tilesets/classroom/wall.png" width="48" height="48"/>
 </tileset>
 <tileset firstgid="11" name="board" tilewidth="16" tileheight="16" tilecount="12" columns="6">
  <image source="../assets/tilesets/classroom/board.png" width="96" height="32"/>
  <tile id="0">
   <properties>
    <property name="dialogue" value="[&quot;This is a test space, player.&quot;, &quot;Proceed to the headquarters to test out your compiler.&quot;, &quot;Inside there you will greet Master Elysia and the others.&quot;, &quot;Talk to them about that bug they caught and they will ask you to debug it or something.&quot;]"/>
   </properties>
  </tile>
 </tileset>
 <tileset firstgid="23" name="cabinet" tilewidth="16" tileheight="16" tilecount="4" columns="2">
  <image source="../assets/tilesets/classroom/cabinet.png" width="32" height="32"/>
 </tileset>
 <tileset firstgid="27" name="desk" tilewidth="16" tileheight="16" tilecount="6" columns="3">
  <image source="../assets/tilesets/classroom/desk.png" width="48" height="32"/>
 </tileset>
 <tileset firstgid="33" name="chair" tilewidth="16" tileheight="16" tilecount="1" columns="1">
  <image source="../assets/tilesets/classroom/chair.png" width="16" height="16"/>
 </tileset>
 <layer id="1" name="ground layer" width="20" height="15">
  <data encoding="csv">
1,1,1,1,1,1,1,1,1,1,1,1,1,1,1,1,1,1,1,1,
1,1,1,1,1,1,1,1,1,1,1,1,1,1,1,1,1,1,1,1,
1,1,1,1,1,1,1,1,1,1,1,1,1,1,1,1,1,1,1,1,
1,1,1,1,1,1,1,1,1,1,1,1,1,1,1,1,1,1,1,1,
1,1,1,1,1,1,1,1,1,1,1,1,1,1,1,1,1,1,1,1,
1,1,1,1,1,1,1,1,1,1,1,1,1,1,1,1,1,1,1,1,
1,1,1,1,1,1,1,1,1,1,1,1,1,1,1,1,1,1,1,1,
1,1,1,1,1,1,1,1,1,1,1,1,1,1,1,1,1,1,1,1,
1,1,1,1,1,1,1,1,1,1,1,1,1,1,1,1,1,1,1,1,
1,1,1,1,1,1,1,1,1,1,1,1,1,1,1,1,1,1,1,1,
1,1,1,1,1,1,1,1,1,1,1,1,1,1,1,1,1,1,1,1,
1,1,1,1,1,1,1,1,1,1,1,1,1,1,1,1,1,1,1,1,
1,1,1,1,1,1,1,1,1,1,1,1,1,1,1,1,1,1,1,1,
1,1,1,1,1,1,1,1,1,1,1,1,1,1,1,1,1,1,1,1,
1,1,1,1,1,1,1,1,1,1,1,1,1,1,1,1,1,1,1,1
</data>
 </layer>
 <layer id="2" name="wall layer" width="20" height="15">
  <data encoding="csv">
2,3,3,3,3,3,3,3,3,3,3,3,3,3,3,3,3,3,3,2684354562,
2684354563,6,6,6,6,6,6,6,6,6,6,6,6,6,6,6,6,6,6,2684354563,
2684354563,9,9,9,9,9,9,9,9,9,9,9,9,9,9,9,9,9,9,2684354563,
2684354563,0,0,0,0,0,0,0,0,0,0,0,0,0,0,0,0,0,0,2684354563,
2684354563,0,0,0,0,0,0,0,0,0,0,0,0,0,0,0,0,0,0,2684354563,
2684354563,0,0,0,0,0,0,0,0,0,0,0,0,0,0,0,0,0,0,2684354563,
2684354563,0,0,0,0,0,0,0,0,0,0,0,0,0,0,0,0,0,0,2684354563,
2684354563,0,0,0,0,0,0,0,0,0,0,0,0,0,0,0,0,0,0,2684354563,
2684354563,0,0,0,0,0,0,0,0,0,0,0,0,0,0,0,0,0,0,2684354563,
2684354563,0,0,0,0,0,0,0,0,0,0,0,0,0,0,0,0,0,0,2684354563,
2684354563,0,0,0,0,0,0,0,0,0,0,0,0,0,0,0,0,0,0,2684354563,
2684354563,0,0,0,0,0,0,0,0,0,0,0,0,0,0,0,0,0,0,2684354563,
2684354563,0,0,0,0,0,0,0,0,0,0,0,0,0,0,0,0,0,0,2684354563,
2684354563,0,0,0,0,0,0,0,0,0,0,0,0,0,0,0,0,0,0,2684354563,
1610612738,3,3,3,3,3,3,3,3,0,0,3,3,3,3,3,3,3221225475,3221225475,3221225474
</data>
 </layer>
 <objectgroup id="5" name="NPC Objects">
  <object id="2" name="Kaelen" x="160" y="65.6667" width="16" height="16">
   <properties>
    <property name="dialogue" value="[&quot;This is a test space, player.&quot;, &quot;Proceed to the headquarters to test out your compiler.&quot;, &quot;Inside there you will greet Master Elysia and the others.&quot;, &quot;Talk to them about that bug they caught and they will ask you to debug it or something.&quot;]"/>
   </properties>
  </object>
 </objectgroup>
 <layer id="4" name="furniture layer" width="20" height="15">
  <data encoding="csv">
0,0,0,0,0,0,0,0,0,0,0,0,0,0,0,0,0,0,0,0,
0,0,0,0,0,0,0,0,0,0,0,0,0,0,0,0,0,0,0,0,
0,23,24,23,24,0,0,0,0,0,0,0,0,0,0,23,24,23,24,0,
0,25,26,25,26,0,0,0,0,0,0,0,0,0,0,25,26,25,26,0,
0,27,28,29,0,0,0,0,0,0,0,0,0,0,0,0,27,28,29,0,
0,30,31,32,0,0,27,28,29,0,0,27,28,29,0,0,30,31,32,0,
0,0,0,0,0,0,30,31,32,0,0,30,31,32,0,0,0,0,0,0,
0,23,24,23,24,0,0,0,0,0,0,0,0,0,0,23,24,23,24,0,
0,25,26,25,26,0,0,0,0,0,0,0,0,0,0,25,26,25,26,0,
0,0,0,0,0,0,27,28,29,0,0,27,28,29,0,0,0,0,0,0,
0,27,28,29,0,0,30,31,32,0,0,30,31,32,0,0,27,28,29,0,
0,30,31,32,0,0,0,0,0,0,0,0,0,0,0,0,30,31,32,0,
0,0,0,0,0,0,0,0,0,0,0,0,0,0,0,0,0,0,0,0,
0,0,0,0,0,0,0,0,0,0,0,0,0,0,0,0,0,0,0,0,
0,0,0,0,0,0,0,0,0,0,0,0,0,0,0,0,0,0,0,0
</data>
 </layer>
 <layer id="3" name="item layer" width="20" height="15">
  <data encoding="csv">
0,0,0,0,0,0,0,0,0,0,0,0,0,0,0,0,0,0,0,0,
0,0,0,0,0,0,0,11,12,13,14,15,16,0,0,0,0,0,0,0,
0,0,0,0,0,0,0,17,18,19,20,21,22,0,0,0,0,0,0,0,
0,0,0,0,0,0,0,0,0,0,0,0,0,0,0,0,0,0,0,0,
0,0,0,0,0,0,0,0,0,0,0,0,0,0,0,0,0,0,0,0,
0,0,0,0,0,0,0,0,0,0,0,0,0,0,0,0,0,0,0,0,
0,33,0,33,0,0,0,0,0,0,0,0,0,0,0,0,0,33,0,0,
0,0,0,0,0,0,0,33,0,0,0,0,33,0,0,0,0,0,0,0,
0,0,0,0,0,0,0,0,0,0,0,0,0,0,0,0,0,0,0,0,
0,0,0,0,0,0,0,0,0,0,0,0,0,0,0,0,0,0,0,0,
0,0,0,0,0,0,0,0,0,0,0,0,0,0,0,0,0,0,0,0,
0,0,0,0,0,0,0,33,0,0,0,0,33,0,0,0,0,0,0,0,
0,0,33,0,0,0,0,0,0,0,0,0,0,0,0,0,33,0,33,0,
0,0,0,0,0,0,0,0,0,0,0,0,0,0,0,0,0,0,0,0,
0,0,0,0,0,0,0,0,0,0,0,0,0,0,0,0,0,0,0,0
</data>
 </layer>
</map>
