<?xml version="1.0" encoding="UTF-8"?>
<map version="1.10" tiledversion="1.11.2" orientation="orthogonal" renderorder="right-down" width="50" height="50" tilewidth="16" tileheight="16" infinite="0" nextlayerid="7" nextobjectid="1">
 <editorsettings>
  <export target="DeepWeb.tmj" format="json"/>
 </editorsettings>
 <tileset firstgid="1" name="corrupted_road" tilewidth="16" tileheight="16" tilecount="10" columns="9">
  <image source="../assets/tilesets/deepweb/corrupted_road.png" width="144" height="16"/>
  <tile id="6">
   <animation>
    <frame tileid="6" duration="300"/>
    <frame tileid="7" duration="300"/>
    <frame tileid="8" duration="300"/>
   </animation>
  </tile>
 </tileset>
 <tileset firstgid="11" name="corruption_static" tilewidth="16" tileheight="16" tilecount="4" columns="4">
  <image source="../assets/tilesets/deepweb/corruption_static.png" width="64" height="16"/>
  <tile id="0">
   <animation>
    <frame tileid="0" duration="200"/>
    <frame tileid="1" duration="200"/>
    <frame tileid="2" duration="200"/>
    <frame tileid="3" duration="200"/>
   </animation>
  </tile>
  <tile id="1">
   <animation>
    <frame tileid="1" duration="200"/>
    <frame tileid="0" duration="200"/>
    <frame tileid="2" duration="200"/>
    <frame tileid="3" duration="200"/>
   </animation>
  </tile>
  <tile id="2">
   <animation>
    <frame tileid="2" duration="200"/>
    <frame tileid="3" duration="200"/>
    <frame tileid="0" duration="200"/>
    <frame tileid="1" duration="200"/>
   </animation>
  </tile>
  <tile id="3">
   <animation>
    <frame tileid="3" duration="200"/>
    <frame tileid="1" duration="200"/>
    <frame tileid="0" duration="200"/>
    <frame tileid="2" duration="200"/>
   </animation>
  </tile>
 </tileset>
 <tileset firstgid="15" name="corruption_guild" tilewidth="16" tileheight="16" tilecount="22" columns="22">
  <image source="../assets/tilesets/deepweb/corruption_guild.png" width="352" height="16"/>
 </tileset>
 <tileset firstgid="37" name="git_terminal" tilewidth="16" tileheight="16" tilecount="8" columns="8">
  <image source="../assets/tilesets/deepweb/git_terminal.png" width="128" height="16"/>
 </tileset>
 <tileset firstgid="45" name="abyss" tilewidth="16" tileheight="16" tilecount="1" columns="1">
  <image source="../assets/tilesets/deepweb/abyss.png" width="16" height="16"/>
 </tileset>
 <layer id="6" name="abyss layer" width="50" height="50">
  <data encoding="csv">
45,45,45,45,45,45,45,45,45,45,45,45,45,45,45,45,45,45,45,45,45,45,45,45,45,45,45,45,45,45,45,45,45,45,45,45,45,45,45,45,45,45,45,45,45,45,45,45,45,45,
45,45,45,45,45,45,45,45,45,45,45,45,45,45,45,45,45,45,45,45,45,45,45,45,45,45,45,45,45,45,45,45,45,45,45,45,45,45,45,45,45,45,45,45,45,45,45,45,45,45,
45,45,45,45,45,45,45,45,45,45,45,45,45,45,45,45,45,45,45,45,45,45,45,45,45,45,45,45,45,45,45,45,45,45,45,45,45,45,45,45,45,45,45,45,45,45,45,45,45,45,
45,45,45,45,45,45,45,45,45,45,45,45,45,45,45,45,45,45,45,45,45,45,45,45,45,45,45,45,45,45,45,45,45,45,45,45,45,45,45,45,45,45,45,0,0,0,0,45,45,45,
45,45,45,45,0,0,0,0,0,0,0,0,0,0,0,0,0,0,0,0,0,0,0,0,0,0,0,0,0,0,0,0,0,0,0,0,0,0,0,0,0,0,0,0,0,0,0,45,45,45,
45,45,45,45,0,0,0,0,0,0,0,0,0,0,0,0,0,0,0,0,0,0,0,0,0,0,0,0,0,0,0,0,0,0,0,0,0,0,0,0,0,0,0,0,0,0,0,45,45,45,
45,45,45,45,0,0,45,45,45,45,45,45,45,45,45,45,45,45,45,45,45,45,45,45,45,45,45,45,45,45,45,45,45,45,45,45,45,45,45,45,45,45,45,0,0,0,0,45,45,45,
45,45,45,45,0,0,45,45,45,45,45,45,45,45,45,45,45,45,45,45,45,45,45,45,45,45,45,45,45,45,45,45,45,45,45,45,45,45,45,45,45,45,45,45,45,45,45,45,45,45,
45,45,45,45,0,0,45,45,45,45,45,45,45,45,45,45,45,45,45,45,45,45,45,45,45,45,45,45,45,45,45,45,45,45,45,45,45,45,45,45,45,45,45,45,45,45,45,45,45,45,
45,45,45,45,0,0,45,45,45,45,45,45,45,45,45,45,45,45,45,45,45,45,45,45,45,45,45,45,45,45,45,45,45,45,45,45,45,45,45,45,45,45,45,45,45,45,45,45,45,45,
45,45,45,45,0,0,45,45,45,45,45,45,45,45,45,45,45,45,45,45,45,45,45,45,45,45,45,45,45,45,45,45,45,45,45,45,45,45,45,45,0,0,0,0,0,0,45,45,45,45,
45,45,45,45,0,0,45,45,45,45,45,45,45,45,45,45,45,45,45,45,45,45,45,45,45,45,45,45,45,45,45,45,45,45,45,45,45,45,45,45,0,0,0,0,0,0,45,45,45,45,
45,45,45,45,0,0,45,45,45,45,45,45,45,45,45,45,45,45,45,45,45,45,45,45,45,45,45,45,45,45,45,45,45,45,45,45,45,45,45,45,45,45,45,45,0,0,45,45,45,45,
45,45,45,45,0,0,45,45,45,45,45,45,45,45,45,45,45,45,45,45,45,45,45,45,45,45,45,45,45,45,45,45,45,45,45,45,45,45,45,45,45,45,45,45,0,0,45,45,45,45,
45,45,45,45,0,0,45,45,45,45,45,45,45,45,45,45,45,45,45,45,45,45,45,45,45,45,45,45,45,45,45,45,45,45,45,45,45,45,45,45,45,45,45,45,0,0,45,45,45,45,
45,45,45,45,0,0,45,45,45,45,45,45,45,45,45,45,45,45,45,45,45,45,45,45,45,45,45,45,45,45,45,45,45,45,0,0,0,0,45,45,45,45,45,45,0,0,45,45,45,45,
45,45,45,45,0,0,45,45,45,45,45,45,45,45,0,0,0,0,0,0,0,0,0,0,0,0,45,45,45,45,45,45,45,45,0,0,0,0,0,0,0,0,0,0,0,0,45,45,45,45,
45,45,45,45,0,0,45,45,45,45,45,45,45,45,0,0,0,0,0,0,0,0,0,0,0,0,45,45,45,45,45,45,45,45,0,0,0,0,0,0,0,0,0,0,0,0,45,45,45,45,
45,45,45,45,0,0,45,45,45,45,45,45,45,45,0,0,45,45,45,45,45,45,45,45,0,0,45,45,45,45,45,45,45,45,0,0,0,0,45,45,45,45,45,45,0,0,45,45,45,45,
45,45,45,45,0,0,45,45,45,45,45,45,45,45,0,0,45,45,45,45,45,45,45,45,0,0,45,45,45,45,45,45,45,45,0,0,45,45,45,45,45,45,45,45,0,0,45,45,45,45,
45,45,45,0,0,0,0,0,0,0,45,45,45,45,0,0,45,45,45,45,0,0,0,0,0,0,0,0,0,0,45,45,45,45,0,0,45,45,45,45,0,0,0,0,0,0,0,45,45,45,
45,45,45,0,0,0,0,0,0,0,45,45,45,45,0,0,45,45,45,45,0,0,0,0,0,0,0,0,0,0,45,45,45,45,0,0,45,45,45,45,0,0,0,0,0,0,0,45,45,45,
45,45,45,0,0,0,0,0,0,0,45,45,45,45,0,0,45,45,45,45,0,0,0,0,0,0,0,0,0,0,45,45,45,45,0,0,45,45,45,45,0,0,0,0,0,0,0,45,45,45,
45,45,45,0,0,0,0,0,0,0,45,45,45,45,0,0,45,45,45,45,0,0,0,0,0,0,0,0,0,0,45,45,45,0,0,0,0,45,45,45,0,0,0,0,0,0,0,45,45,45,
0,0,0,0,0,0,0,0,0,0,0,0,0,0,0,0,0,0,0,0,0,0,0,0,0,0,0,0,0,0,0,0,0,0,0,0,0,0,0,0,0,0,0,0,0,0,0,0,0,0,
0,0,0,0,0,0,0,0,0,0,0,0,0,0,0,0,0,0,0,0,0,0,0,0,0,0,0,0,0,0,0,0,0,0,0,0,0,0,0,0,0,0,0,0,0,0,0,0,0,0,
45,45,45,0,0,0,0,0,0,0,45,45,45,45,0,0,45,45,45,45,0,0,0,0,0,0,0,0,0,0,45,45,45,0,0,0,0,45,45,45,0,0,0,0,0,0,0,45,45,45,
45,45,45,0,0,0,0,0,0,0,45,45,45,45,0,0,45,45,45,45,0,0,0,0,0,0,0,0,0,0,45,45,45,45,0,0,45,45,45,45,0,0,0,0,0,0,0,45,45,45,
45,45,45,0,0,0,0,0,0,0,45,45,45,45,0,0,45,45,45,45,0,0,0,0,0,0,0,0,0,0,45,45,45,45,0,0,45,45,45,45,0,0,0,0,0,0,0,45,45,45,
45,45,45,0,0,0,0,0,0,0,45,45,45,45,0,0,45,45,45,45,0,0,0,0,0,0,0,0,0,0,45,45,45,45,0,0,45,45,45,45,0,0,0,0,0,0,0,45,45,45,
45,45,45,45,0,0,45,45,45,45,45,45,45,45,0,0,45,45,45,45,45,45,45,45,0,0,45,45,45,45,45,45,45,45,0,0,45,45,45,45,45,45,45,45,0,0,45,45,45,45,
45,45,45,45,0,0,45,45,45,45,45,45,45,45,0,0,45,45,45,45,45,45,45,45,0,0,45,45,45,45,45,45,45,45,0,0,45,45,45,45,45,45,45,45,0,0,45,45,45,45,
45,45,45,45,0,0,45,45,45,45,45,45,45,45,0,0,45,45,45,45,45,45,45,45,0,0,45,45,45,45,45,45,45,45,0,0,45,45,45,45,45,45,45,45,0,0,45,45,45,45,
45,45,45,45,0,0,45,45,45,45,45,45,45,45,0,0,45,45,45,45,45,45,45,0,0,0,0,45,45,45,45,45,45,45,0,0,45,45,45,45,45,45,45,45,0,0,45,45,45,45,
45,45,45,45,0,0,45,45,45,45,45,45,45,45,0,0,45,45,45,45,45,45,45,0,0,0,0,0,0,0,0,0,0,0,0,0,45,45,45,45,45,45,45,45,0,0,45,45,45,45,
45,45,45,45,0,0,45,45,45,45,45,45,45,45,0,0,45,45,45,45,45,45,45,0,0,0,0,0,0,0,0,0,0,0,0,0,45,45,45,45,45,45,45,45,0,0,45,45,45,45,
45,45,45,45,0,0,45,45,45,45,45,45,45,45,0,0,45,45,45,45,45,45,45,0,0,0,0,45,45,45,45,45,45,45,45,45,45,45,45,45,45,45,45,45,0,0,45,45,45,45,
45,45,45,45,0,0,45,45,45,45,45,45,45,45,0,0,45,45,45,45,45,45,45,45,0,0,45,45,45,45,45,45,45,45,45,45,45,45,45,45,45,45,45,45,0,0,45,45,45,45,
45,45,45,45,0,0,45,45,45,45,45,45,45,45,0,0,45,45,45,45,45,45,45,45,0,0,45,45,45,45,45,45,45,45,45,45,45,45,45,45,45,45,45,45,0,0,45,45,45,45,
45,45,45,45,0,0,45,45,45,45,45,45,45,45,0,0,45,45,45,45,45,45,45,45,0,0,45,45,45,45,45,45,45,45,45,45,45,45,45,45,45,45,45,45,0,0,45,45,45,45,
45,45,45,0,0,0,0,0,0,0,45,45,45,45,0,0,45,45,45,45,0,0,0,0,0,0,0,0,0,0,45,45,45,45,45,45,45,45,45,45,0,0,0,0,0,0,0,45,45,45,
45,45,45,0,0,0,0,0,0,0,45,45,45,45,0,0,45,45,45,45,0,0,0,0,0,0,0,0,0,0,45,45,45,45,45,45,45,45,45,45,0,0,0,0,0,0,0,45,45,45,
45,45,45,0,0,0,0,0,0,0,45,45,45,45,0,0,45,45,45,45,0,0,0,0,0,0,0,0,0,0,45,45,45,45,45,45,45,45,45,45,0,0,0,0,0,0,0,45,45,45,
45,45,45,0,0,0,0,0,0,0,45,45,45,45,0,0,45,45,45,45,0,0,0,0,0,0,0,0,0,0,45,45,45,45,45,45,45,45,45,45,0,0,0,0,0,0,0,45,45,45,
0,0,0,0,0,0,0,0,0,0,0,0,0,0,0,0,45,45,45,45,0,0,0,0,0,0,0,0,0,0,0,0,0,0,0,0,0,0,0,0,0,0,0,0,0,0,0,0,0,0,
0,0,0,0,0,0,0,0,0,0,0,0,0,0,0,0,45,45,45,45,0,0,0,0,0,0,0,0,0,0,0,0,0,0,0,0,0,0,0,0,0,0,0,0,0,0,0,0,0,0,
45,45,45,0,0,0,0,0,0,0,45,45,45,45,45,45,45,45,45,45,0,0,0,0,0,0,0,0,0,0,45,45,45,45,45,45,45,45,45,45,0,0,0,0,0,0,0,45,45,45,
45,45,45,45,0,0,45,45,45,45,45,45,45,45,45,45,45,45,45,45,45,45,45,45,0,0,45,45,45,45,45,45,45,45,45,45,45,45,45,45,45,45,45,45,0,0,45,45,45,45,
45,45,45,45,0,0,45,45,45,45,45,45,45,45,45,45,45,45,45,45,45,45,45,45,0,0,45,45,45,45,45,45,45,45,45,45,45,45,45,45,45,45,45,45,0,0,45,45,45,45,
45,45,45,45,0,0,45,45,45,45,45,45,45,45,45,45,45,45,45,45,45,45,45,45,0,0,45,45,45,45,45,45,45,45,45,45,45,45,45,45,45,45,45,45,0,0,45,45,45,45
</data>
 </layer>
 <layer id="4" name="lower road layer" width="50" height="50">
  <data encoding="csv">
0,0,0,0,0,0,0,0,0,0,0,0,0,0,0,0,0,0,0,0,0,0,0,0,0,0,0,0,0,0,0,0,0,0,0,0,0,0,0,0,0,0,0,0,0,0,0,0,0,0,
0,0,0,0,0,0,0,0,0,0,0,0,0,0,0,0,0,0,0,0,0,0,0,0,0,0,0,0,0,0,0,0,0,0,0,0,0,0,0,0,0,0,0,0,0,0,0,0,0,0,
0,0,0,0,0,0,0,0,0,0,0,0,0,0,0,0,0,0,0,0,0,0,0,0,0,0,0,0,0,0,0,0,0,0,0,0,0,0,0,0,0,0,0,0,0,0,0,0,0,0,
0,0,0,0,0,0,0,0,0,0,0,0,0,0,0,0,0,0,0,0,0,0,0,0,0,0,0,0,0,0,0,0,0,0,0,0,0,0,0,0,0,0,0,0,0,0,0,0,0,0,
0,0,0,0,0,0,0,0,0,0,2684354562,2684354561,2684354562,2684354561,2684354562,2684354561,2684354562,2684354561,2684354562,2684354561,2684354562,2684354561,2684354562,2684354561,2684354562,2684354561,2684354562,2684354561,2684354562,2684354561,2684354562,2684354561,2684354562,2684354561,2684354562,2684354561,2684354562,2684354561,2684354562,2684354561,1073741826,0,0,0,0,0,0,0,0,0,
0,0,0,0,0,0,0,0,0,0,1610612737,1610612738,1610612737,1610612738,1610612737,1610612738,1610612737,1610612738,1610612737,1610612738,1610612737,1610612738,1610612737,1610612738,1610612737,1610612738,1610612737,1610612738,1610612737,1610612738,1610612737,1610612738,1610612737,1610612738,1610612737,1610612738,1610612737,1610612738,1610612737,1610612738,0,0,0,0,0,0,0,0,0,0,
0,0,0,0,0,0,0,0,0,0,7,7,7,7,7,7,7,7,7,7,7,7,7,7,7,7,7,7,7,7,7,7,7,7,7,7,7,7,7,7,0,0,0,0,0,0,0,0,0,0,
0,0,0,0,0,0,0,0,0,0,0,0,0,0,0,0,0,0,0,0,0,0,0,0,0,0,0,0,0,0,0,0,0,0,0,0,0,0,0,0,0,0,0,0,0,0,0,0,0,0,
0,0,0,0,0,0,0,0,0,0,0,0,0,0,0,0,0,0,0,0,0,0,0,0,0,0,0,0,0,0,0,0,0,0,0,0,0,0,0,0,0,0,0,0,0,0,0,0,0,0,
0,0,0,0,0,0,0,0,0,0,0,0,0,0,0,0,0,0,0,0,0,0,0,0,0,0,0,0,0,0,0,0,0,0,0,0,0,0,0,0,0,0,0,0,0,0,0,0,0,0,
0,0,0,0,0,0,0,0,0,0,0,0,0,0,0,0,0,0,0,0,0,0,0,0,0,0,0,0,0,0,0,0,0,0,0,0,0,0,0,0,0,0,0,0,0,0,0,0,0,0,
0,0,0,0,0,0,0,0,0,0,0,0,0,0,0,0,0,0,0,0,0,0,0,0,0,0,0,0,0,0,0,0,0,0,0,0,0,0,0,0,0,0,0,0,0,0,0,0,0,0,
0,0,0,0,0,0,0,0,0,0,0,0,0,0,0,0,0,0,0,0,0,0,0,0,0,0,0,0,0,0,0,0,0,0,0,0,0,0,0,0,0,0,0,0,0,0,0,0,0,0,
0,0,0,0,0,0,0,0,0,0,0,0,0,0,0,0,0,0,0,0,0,0,0,0,0,0,0,0,0,0,0,0,0,0,0,0,0,0,0,0,0,0,0,0,0,0,0,0,0,0,
0,0,0,0,0,0,0,0,0,0,0,0,0,0,0,0,0,0,0,0,0,0,0,0,0,0,0,0,0,0,0,0,0,0,0,0,0,0,0,0,0,0,0,0,0,0,0,0,0,0,
0,0,0,0,0,0,0,0,0,0,0,0,0,0,0,0,0,0,0,0,0,0,0,0,0,0,0,0,0,0,0,0,0,0,0,0,0,0,0,0,0,0,0,0,0,0,0,0,0,0,
0,0,0,0,0,0,0,0,0,0,0,0,0,0,0,0,0,0,0,0,0,0,0,0,0,0,0,0,0,0,0,0,0,0,0,0,0,0,0,0,0,0,0,0,0,0,0,0,0,0,
0,0,0,0,0,0,0,0,0,0,0,0,0,0,0,0,0,0,0,0,0,0,0,0,0,0,0,0,0,0,0,0,0,0,0,0,0,0,0,0,0,0,0,0,0,0,0,0,0,0,
0,0,0,0,0,0,0,0,0,0,0,0,0,0,0,0,0,0,0,0,0,0,0,0,0,0,0,0,0,0,0,0,0,0,0,0,0,0,0,0,0,0,0,0,0,0,0,0,0,0,
0,0,0,0,0,0,0,0,0,0,0,0,0,0,0,0,0,0,0,0,0,0,0,0,0,0,0,0,0,0,0,0,0,0,0,0,0,0,0,0,0,0,0,0,0,0,0,0,0,0,
0,0,0,0,0,0,0,0,0,0,0,0,0,0,0,0,0,0,0,0,0,0,0,0,0,0,0,0,0,0,0,0,0,0,0,0,0,0,0,0,0,0,0,0,0,0,0,0,0,0,
0,0,0,0,0,0,0,0,0,0,0,0,0,0,0,0,0,0,0,0,0,0,0,0,0,0,0,0,0,0,0,0,0,0,0,0,0,0,0,0,0,0,0,0,0,0,0,0,0,0,
0,0,0,0,0,0,0,0,0,0,0,0,0,0,0,0,0,0,0,0,0,0,0,0,0,0,0,0,0,0,0,0,0,0,0,0,0,0,0,0,0,0,0,0,0,0,0,0,0,0,
0,0,0,0,0,0,0,0,0,0,0,0,0,0,0,0,0,0,0,0,0,0,0,0,0,0,0,0,0,0,0,0,0,5,2684354566,3221225478,2684354565,0,0,0,0,0,0,0,0,0,0,0,0,0,
0,0,0,0,0,0,0,0,0,0,0,0,0,0,1073741826,2147483650,0,0,0,0,0,0,0,0,0,0,0,0,0,0,0,0,0,1073741826,3221225475,3221225475,3221225478,0,0,0,0,0,0,0,0,0,0,0,0,0,
0,0,0,0,0,0,0,0,0,0,0,0,0,0,1073741826,2147483650,0,0,0,0,0,0,0,0,0,0,0,0,0,0,0,0,0,1073741826,3221225475,3221225475,1610612742,0,0,0,0,0,0,0,0,0,0,0,0,0,
0,0,0,0,0,0,0,0,0,0,0,0,0,0,0,0,0,0,0,0,0,0,0,0,0,0,0,0,0,0,0,0,0,1610612741,1610612738,1610612738,3221225477,0,0,0,0,0,0,0,0,0,0,0,0,0,
0,0,0,0,0,0,0,0,0,0,0,0,0,0,0,0,0,0,0,0,0,0,0,0,0,0,0,0,0,0,0,0,0,7,7,7,7,0,0,0,0,0,0,0,0,0,0,0,0,0,
0,0,0,0,0,0,0,0,0,0,0,0,0,0,0,0,0,0,0,0,0,0,0,0,0,0,0,0,0,0,0,0,0,0,0,0,0,0,0,0,0,0,0,0,0,0,0,0,0,0,
0,0,0,0,0,0,0,0,0,0,0,0,0,0,0,0,0,0,0,0,0,0,0,0,0,0,0,0,0,0,0,0,0,0,0,0,0,0,0,0,0,0,0,0,0,0,0,0,0,0,
0,0,0,0,0,0,0,0,0,0,0,0,0,0,0,0,0,0,0,0,0,0,0,0,0,0,0,0,0,0,0,0,0,0,0,0,0,0,0,0,0,0,0,0,0,0,0,0,0,0,
0,0,0,0,0,0,0,0,0,0,0,0,0,0,0,0,0,0,0,0,0,0,0,0,0,0,0,0,0,0,0,0,0,0,0,0,0,0,0,0,0,0,0,0,0,0,0,0,0,0,
0,0,0,0,0,0,0,0,0,0,0,0,0,0,0,0,0,0,0,0,0,0,0,0,0,0,0,0,0,0,0,0,0,0,0,0,0,0,0,0,0,0,0,0,0,0,0,0,0,0,
0,0,0,0,0,0,0,0,0,0,0,0,0,0,0,0,0,0,0,0,0,0,0,536870917,1073741830,536870918,2147483653,0,0,0,0,0,0,0,0,0,0,0,0,0,0,0,0,0,0,0,0,0,0,0,
0,0,0,0,0,0,0,0,0,0,0,0,0,0,0,0,0,0,0,0,0,0,0,1073741826,536870915,536870915,3221225474,0,0,0,0,0,0,0,0,0,0,0,0,0,0,0,0,0,0,0,0,0,0,0,
0,0,0,0,0,0,0,0,0,0,0,0,0,0,0,0,0,0,0,0,0,0,0,1073741826,536870915,536870915,3221225474,0,0,0,0,0,0,0,0,0,0,0,0,0,0,0,0,0,0,0,0,0,0,0,
0,0,0,0,0,0,0,0,0,0,0,0,0,0,0,0,0,0,0,0,0,0,0,1073741829,1610612738,1610612738,3758096389,0,0,0,0,0,0,0,0,0,0,0,0,0,0,0,0,0,0,0,0,0,0,0,
0,0,0,0,0,0,0,0,0,0,0,0,0,0,0,0,0,0,0,0,0,0,0,7,7,7,7,0,0,0,0,0,0,0,0,0,0,0,0,0,0,0,0,0,0,0,0,0,0,0,
0,0,0,0,0,0,0,0,0,0,0,0,0,0,0,0,0,0,0,0,0,0,0,0,0,0,0,0,0,0,0,0,0,0,0,0,0,0,0,0,0,0,0,0,0,0,0,0,0,0,
0,0,0,0,0,0,0,0,0,0,0,0,0,0,0,0,0,0,0,0,0,0,0,0,0,0,0,0,0,0,0,0,0,0,0,0,0,0,0,0,0,0,0,0,0,0,0,0,0,0,
0,0,0,0,0,0,0,0,0,0,0,0,0,0,0,0,0,0,0,0,0,0,0,0,0,0,0,0,0,0,0,0,0,0,0,0,0,0,0,0,0,0,0,0,0,0,0,0,0,0,
0,0,0,0,0,0,0,0,0,0,0,0,0,0,0,0,0,0,0,0,0,0,0,0,0,0,0,0,0,0,0,0,0,0,0,0,0,0,0,0,0,0,0,0,0,0,0,0,0,0,
0,0,0,0,0,0,0,0,0,0,0,0,0,0,0,0,0,0,0,0,0,0,0,0,0,0,0,0,45,45,45,45,0,0,0,0,0,0,0,0,0,0,0,0,0,0,0,0,0,0,
0,0,0,0,0,0,0,0,0,0,0,0,0,0,0,0,0,0,0,0,0,0,0,0,0,0,0,0,45,45,45,45,0,0,0,0,0,0,0,0,0,0,0,0,0,0,0,0,0,0,
0,0,0,0,0,0,0,0,0,0,0,0,0,0,0,0,0,0,0,0,0,0,0,0,0,0,0,0,45,45,45,45,0,0,0,0,0,0,0,0,0,0,0,0,0,0,0,0,0,0,
0,0,0,0,0,0,0,0,0,0,0,0,0,0,0,0,0,0,0,0,0,0,0,0,0,0,0,0,45,45,45,45,0,0,0,0,0,0,0,0,0,0,0,0,0,0,0,0,0,0,
0,0,0,0,0,0,0,0,0,0,0,0,0,0,0,0,0,0,0,0,0,0,0,0,0,0,0,0,0,0,0,0,0,0,0,0,0,0,0,0,0,0,0,0,0,0,0,0,0,0,
0,0,0,0,0,0,0,0,0,0,0,0,0,0,0,0,0,0,0,0,0,0,0,0,0,0,0,0,0,0,0,0,0,0,0,0,0,0,0,0,0,0,0,0,0,0,0,0,0,0,
0,0,0,0,0,0,0,0,0,0,0,0,0,0,0,0,0,0,0,0,0,0,0,0,0,0,0,0,0,0,0,0,0,0,0,0,0,0,0,0,0,0,0,0,0,0,0,0,0,0,
0,0,0,0,0,0,0,0,0,0,0,0,0,0,0,0,0,0,0,0,0,0,0,0,0,0,0,0,0,0,0,0,0,0,0,0,0,0,0,0,0,0,0,0,0,0,0,0,0,0
</data>
 </layer>
 <layer id="1" name="upper road layer" width="50" height="50">
  <data encoding="csv">
0,0,0,0,0,0,0,0,0,0,5,2684354562,2684354561,2684354561,2684354561,2684354562,2684354561,2684354562,2684354561,2684354562,2684354561,2684354562,2684354561,2684354562,2684354561,2684354562,2684354561,2684354562,2684354561,2684354562,2684354561,2684354562,2684354561,2684354562,2684354561,2684354562,2684354561,2684354562,2684354561,2684354565,0,0,0,0,0,0,0,0,0,0,
0,0,0,0,0,0,0,0,0,0,1,4,3,4,4,4,3,4,4,3,4,4,4,3,4,4,3,4,4,4,3,4,3,4,4,4,3,4,3,3221225474,0,0,0,0,0,0,0,0,0,0,
0,0,0,0,0,0,0,0,0,0,2,3,3,4,4,3,4,4,3,3,4,4,3,4,4,3,3,4,4,3,4,3,3,4,4,3,4,4,3,3221225473,0,0,0,0,0,0,0,0,0,0,
0,0,0,0,0,0,0,0,0,0,1,4,3,4,4,4,3,4,4,3,4,4,4,3,4,3,3,4,4,4,3,4,3,4,4,4,3,4,3,3221225474,0,0,0,5,2684354562,2684354562,2684354565,0,0,0,
0,0,0,0,5,2684354562,2684354561,2684354561,2684354561,2684354561,2,3,3,4,4,3,4,4,3,3,4,4,3,4,4,3,3,4,3,4,4,3,3,4,4,3,4,4,3,3221225473,536870914,536870914,536870914,2684354566,3,3,2147483650,0,0,0,
0,0,0,0,2,1610612742,1610612737,1610612737,1610612737,1610612737,1,3,3,4,4,4,3,3,3,3,4,4,4,3,3,3,3,4,4,3,4,3,3,4,4,4,3,3,3,3221225474,3758096386,3758096386,3758096386,6,3,3,2147483650,0,0,0,
0,0,0,0,1,3221225474,7,7,7,7,2,3,3,4,3,4,4,3,3,3,4,3,4,4,3,3,3,4,3,4,3,3,3,4,3,4,4,3,3,3221225473,7,7,7,1610612741,3758096386,3758096386,3221225477,0,0,0,
0,0,0,0,1,3221225474,0,0,0,0,1,3,3,4,4,3,4,3,3,3,4,4,3,4,3,3,3,3,4,3,4,3,3,4,4,3,4,3,3,3221225474,0,0,0,7,7,7,7,0,0,0,
0,0,0,0,1,3221225474,0,0,0,0,2,3,3,4,3,4,3,4,3,3,4,3,4,3,4,3,4,3,3,3,4,3,3,4,3,4,3,4,3,3221225473,0,0,0,0,0,0,0,0,0,0,
0,0,0,0,2,3221225473,0,0,0,0,1,4,4,3,4,3,4,3,3,3,3,4,3,4,3,3,3,3,4,3,4,3,3,3,4,3,4,3,4,3221225474,0,0,0,0,0,0,0,0,0,0,
0,0,0,0,1,3221225474,0,0,0,0,1,4,4,3,3,3,4,3,3,4,3,3,3,4,3,3,4,3,3,3,4,3,4,3,3,3,4,3,3,3221225478,536870914,536870913,536870914,536870913,536870914,2684354565,0,0,0,0,
0,0,0,0,2,3221225473,0,0,0,0,1610612741,3758096386,1610612738,1610612737,1610612738,1610612737,1610612738,1610612737,1610612738,1610612737,1610612738,1610612737,1610612738,1610612737,1610612738,1610612737,1610612738,1610612737,1610612738,1610612737,1610612738,1610612737,1610612738,1610612737,1610612738,1610612737,1610612738,1610612737,3758096385,3758096386,3758096385,3758096386,3758096385,3758096386,6,2147483650,0,0,0,0,
0,0,0,0,1,3221225474,0,0,0,0,7,7,7,7,7,7,7,7,7,7,7,7,7,7,7,7,7,7,7,7,7,7,7,7,7,7,7,7,7,7,7,7,7,7,1,3221225474,0,0,0,0,
0,0,0,0,2,3221225473,0,0,0,0,0,0,0,0,0,0,0,0,0,0,0,0,0,0,0,0,0,0,0,0,0,0,0,0,0,0,0,0,0,0,0,0,0,0,2,3221225473,0,0,0,0,
0,0,0,0,1,3221225474,0,0,0,0,0,0,0,0,0,0,0,0,0,0,0,0,0,0,0,0,0,0,0,0,0,0,0,0,0,0,0,0,0,0,0,0,0,0,1,3221225474,0,0,0,0,
0,0,0,0,2,3221225473,0,0,0,0,0,0,0,0,0,0,0,0,0,0,0,0,0,0,0,0,0,0,0,0,0,0,0,0,5,536870914,536870914,2684354565,0,0,0,0,0,0,1073741826,3221225473,0,0,0,0,
0,0,0,0,1,3221225474,0,0,0,0,0,0,0,0,5,2684354562,2684354562,2684354561,2684354562,2684354561,2684354562,2684354561,2684354562,2684354561,2684354562,2147483653,0,0,0,0,0,0,0,0,1073741826,3221225475,3221225475,3221225478,2684354562,2684354561,2684354562,2684354561,2684354562,2684354561,2684354566,2147483650,0,0,0,0,
0,0,0,0,2,3221225473,0,0,0,0,0,0,0,0,1073741826,1610612742,1610612737,1610612738,1610612737,1610612738,1610612737,1610612738,1610612737,1610612738,6,3221225474,0,0,0,0,0,0,0,0,1073741826,3221225475,3221225475,1610612742,1610612737,1610612738,1610612737,1610612738,1610612737,1610612738,6,3221225473,0,0,0,0,
0,0,0,0,1,3221225474,0,0,0,0,0,0,0,0,1073741826,2147483649,7,7,7,7,7,7,7,7,2,3221225473,0,0,0,0,0,0,0,0,1073741826,1610612742,1610612738,3221225477,7,7,7,7,7,7,1,3221225474,0,0,0,0,
0,0,0,0,2,3221225473,0,0,0,0,0,0,0,0,1073741825,2147483650,0,0,0,0,0,0,0,0,1,3221225474,0,0,0,0,0,0,0,0,1073741825,2147483650,7,7,0,0,0,0,0,0,2,3221225473,0,0,0,0,
0,0,0,5,2684354566,3221225478,2684354562,2684354561,2684354562,2147483653,0,0,0,0,1073741826,2147483649,0,0,0,0,5,2684354561,2684354562,2684354561,2684354566,3221225478,2684354562,2684354561,2684354562,2147483653,0,0,0,0,1073741826,2147483649,0,0,0,0,5,2684354561,2684354562,2684354561,2684354566,3221225478,2147483653,0,0,0,
0,0,0,2,4,4,3,4,3,3221225473,0,0,0,0,1073741825,2147483650,0,0,0,0,2,4,3,4,4,4,3,4,3,3221225473,0,0,0,0,1073741825,2147483650,0,0,0,0,2,4,3,4,4,4,2147483650,0,0,0,
0,0,0,1,4,3,4,4,3,3221225474,0,0,0,0,1073741826,2147483649,0,0,0,0,1,3,3,4,4,3,4,4,3,3221225474,0,0,0,0,2,3221225474,0,0,0,0,1,3,3,4,4,3,2147483649,0,0,0,
0,0,0,2,4,4,3,3,3,3221225473,0,0,0,0,1073741825,2147483650,0,0,0,0,2,3,3,4,4,4,3,3,3,3221225473,0,0,0,0,0,0,0,0,0,0,2,3,3,4,4,4,2147483650,0,0,0,
536870913,536870914,536870913,2684354566,3,4,4,3,3,3221225478,2684354561,2684354562,2684354561,2684354562,2684354561,2684354562,2684354561,2684354562,2684354561,2684354562,2684354566,3,3,4,3,4,4,3,3,3221225478,2684354561,2684354562,2684354561,2684354562,2684354561,2147483653,0,2684354561,2684354561,2684354562,2684354566,3,3,4,3,4,536870918,536870914,536870913,536870914,
3758096386,3758096385,3758096386,6,4,3,4,3,3,1610612742,1610612738,1610612737,1610612738,1610612737,1610612738,1610612737,1610612738,1610612737,1610612738,1610612737,6,3,3,4,4,3,4,3,3,1610612742,1610612738,1610612737,1610612738,1610612737,6,2147483649,0,1610612738,1610612738,1610612737,6,3,3,4,4,3,2147483654,3758096385,3758096386,3758096385,
7,7,7,1,3,4,3,4,3,3221225474,7,7,7,7,1,3221225474,7,7,7,7,1,3,3,4,3,4,3,4,3,3221225474,7,7,7,0,1073741826,2147483649,0,7,7,7,1,3,3,4,3,4,2147483649,7,7,7,
0,0,0,2,4,3,4,3,4,3221225473,0,0,0,0,2,3221225473,0,0,0,0,2,3,3,3,4,3,4,3,4,3221225473,0,0,0,7,1073741825,2147483650,7,0,0,0,2,3,3,3,4,3,2147483650,0,0,0,
0,0,0,1,3,3,4,3,3,3221225474,0,0,0,0,1,3221225474,0,0,0,0,1,3,4,3,3,3,4,3,3,3221225474,0,0,0,0,1073741826,2147483649,0,0,0,0,1,3,4,3,3,3,2147483649,0,0,0,
0,0,0,1610612741,6,1610612742,1610612737,1610612738,1610612737,3221225477,0,0,0,0,2,3221225473,0,0,0,0,1610612741,1610612738,1610612737,1610612738,6,1610612742,1610612737,1610612738,1610612737,3221225477,0,0,0,0,1073741825,2147483650,0,0,0,0,1610612741,1610612738,1610612737,1610612738,6,1610612742,3758096389,0,0,0,
0,0,0,7,1,3221225474,7,7,7,7,0,0,0,0,1,3221225474,0,0,0,0,7,7,7,7,2,3221225473,7,7,7,7,0,0,0,0,1073741826,2147483649,0,0,0,0,7,7,7,7,1,3221225474,7,0,0,0,
0,0,0,0,2,3221225473,0,0,0,0,0,0,0,0,2,3221225473,0,0,0,0,0,0,0,0,1,3221225474,0,0,0,0,0,0,0,0,1073741825,2147483650,0,0,0,0,0,0,0,0,2,3221225473,0,0,0,0,
0,0,0,0,1,3221225474,0,0,0,0,0,0,0,0,2,3221225474,0,0,0,0,0,0,0,0,1,3221225474,0,0,0,0,0,0,0,0,1073741826,2147483649,0,0,0,0,0,0,0,0,1,3221225474,0,0,0,0,
0,0,0,0,2,3221225473,0,0,0,0,0,0,0,0,2,3221225473,0,0,0,0,0,0,0,0,0,0,0,0,0,0,0,0,0,0,1073741825,2147483650,0,0,0,0,0,0,0,0,2,3221225473,0,0,0,0,
0,0,0,0,1,3221225474,0,0,0,0,0,0,0,0,2,3221225473,0,0,0,0,0,0,0,0,5,2684354562,2684354561,2684354562,2684354561,2684354561,2684354562,2684354561,2684354562,2684354561,2684354566,2147483650,0,0,0,0,0,0,0,0,2,3221225473,0,0,0,0,
0,0,0,0,2,3221225473,0,0,0,0,0,0,0,0,2,3221225473,0,0,0,0,0,0,0,0,2,1610612742,1610612738,1610612737,1610612738,1610612738,1610612737,1610612738,1610612737,1610612738,1610612737,3758096389,0,0,0,0,0,0,0,0,2,3221225473,0,0,0,0,
0,0,0,0,1,3221225474,0,0,0,0,0,0,0,0,1,3221225473,0,0,0,0,0,0,0,0,2,3221225473,0,7,7,7,7,7,7,7,7,7,0,0,0,0,0,0,0,0,1,3221225474,0,0,0,0,
0,0,0,0,2,3221225473,0,0,0,0,0,0,0,0,2,3221225473,0,0,0,0,0,0,0,0,1,3221225474,0,0,0,0,0,0,0,0,0,0,0,0,0,0,0,0,0,0,2,3221225473,0,0,0,0,
0,0,0,0,1,3221225474,0,0,0,0,0,0,0,0,1,3221225474,0,0,0,0,0,0,0,0,2,3221225473,0,0,0,0,0,0,0,0,0,0,0,0,0,0,0,0,0,0,1,3221225474,0,0,0,0,
0,0,0,0,2,3221225473,0,0,0,0,0,0,0,0,2,3221225473,0,0,0,0,0,0,0,0,1,3221225474,0,0,0,0,0,0,0,0,0,0,0,0,0,0,0,0,0,0,2,3221225473,0,0,0,0,
0,0,0,5,2684354566,3221225478,2684354562,2684354561,2684354562,2147483653,0,0,0,0,1,3221225474,0,0,0,0,5,2684354561,2684354562,2684354561,2684354566,3221225478,2684354562,2684354561,2684354562,2147483653,0,0,0,0,0,0,0,0,0,0,5,2684354561,2684354562,2684354561,2684354566,3221225478,2147483653,0,0,0,
0,0,0,2,4,4,3,4,3,3221225473,0,0,0,0,2,3221225473,0,0,0,0,2,4,3,4,4,4,3,4,3,3221225473,0,0,0,0,0,0,0,0,0,0,2,4,3,4,4,4,2147483650,0,0,0,
0,0,0,1,4,3,4,4,3,3221225474,0,0,0,0,1,3221225473,0,0,0,0,1,3,3,4,4,3,4,4,3,3221225474,0,0,0,0,0,0,0,0,0,0,1,3,3,4,4,3,2147483649,0,0,0,
0,0,0,2,4,4,3,3,3,3221225473,0,0,0,0,2,3221225473,0,0,0,0,2,3,3,4,4,4,3,3,3,3221225473,0,0,0,0,0,0,0,0,0,0,2,3,3,4,4,4,2147483650,0,0,0,
2684354561,2684354562,2684354561,2684354566,3,4,4,3,3,3221225478,536870913,536870914,536870914,536870914,2684354566,3221225473,0,0,0,0,2,3,3,4,3,4,4,3,3,3221225478,536870913,536870914,536870913,536870914,536870913,536870914,536870913,536870914,536870913,536870914,2684354566,3,3,4,3,4,536870918,2684354562,2684354561,2684354562,
1610612738,1610612737,1610612738,6,4,3,4,3,3,1610612742,3758096386,3758096385,3758096386,3758096385,3758096386,3221225477,0,0,0,0,2,3,3,4,4,3,4,3,3,1610612742,3758096386,3758096385,3758096386,3758096385,3758096386,3758096385,3758096386,3758096385,3758096386,3758096385,6,3,3,4,4,3,2147483654,1610612737,1610612738,1610612737,
7,7,7,1610612741,3,4,1610612737,1610612738,1610612737,3221225477,7,7,7,7,7,7,0,0,0,0,1610612741,1610612738,1610612737,1610612738,6,1610612742,1610612737,1610612738,1610612737,3221225477,7,7,7,7,7,7,7,7,7,7,1073741829,3758096385,3758096386,3758096385,2147483652,2147483651,3758096389,7,7,7,
0,0,0,7,1,3221225474,7,7,7,7,0,0,0,0,0,0,0,0,0,0,7,7,7,7,1,3221225474,7,7,7,7,0,0,0,0,0,0,0,0,0,0,7,7,7,7,1,3221225474,7,0,0,0,
0,0,0,0,2,3221225473,0,0,0,0,0,0,0,0,0,0,0,0,0,0,0,0,0,0,2,3221225473,0,0,0,0,0,0,0,0,0,0,0,0,0,0,0,0,0,0,2,3221225473,0,0,0,0,
0,0,0,0,1,3221225474,0,0,0,0,0,0,0,0,0,0,0,0,0,0,0,0,0,0,1,3221225474,0,0,0,0,0,0,0,0,0,0,0,0,0,0,0,0,0,0,1,3221225474,0,0,0,0
</data>
 </layer>
 <layer id="5" name="object layer" width="50" height="50">
  <data encoding="csv">
0,0,0,0,0,0,0,0,0,0,0,0,0,0,0,0,0,0,0,0,0,0,0,0,0,0,0,0,0,0,0,0,0,0,0,0,0,0,0,0,0,0,0,0,0,0,0,0,0,0,
0,0,0,0,0,0,0,0,0,0,0,0,0,0,0,0,0,0,0,0,0,0,0,0,0,0,0,0,0,0,0,0,0,0,0,0,0,0,0,0,0,0,0,0,0,0,0,0,0,0,
0,0,0,0,0,0,0,0,0,0,0,0,0,0,0,0,0,0,0,0,0,0,0,0,0,0,0,0,0,0,0,0,0,0,0,0,0,0,0,0,0,0,0,0,0,0,0,0,0,0,
0,0,0,0,0,0,0,0,0,0,0,0,0,0,0,0,0,0,0,0,0,0,0,0,0,0,0,0,0,0,0,0,0,0,0,0,0,0,0,0,0,0,0,0,0,0,0,0,0,0,
0,0,0,0,0,0,0,0,0,0,0,0,0,0,0,0,0,0,0,0,0,0,0,0,0,0,0,0,0,0,0,0,0,0,0,0,0,0,0,0,0,0,0,0,0,0,0,0,0,0,
0,0,0,0,0,0,0,0,0,0,0,0,0,0,0,0,0,0,0,0,0,0,0,0,0,0,0,0,0,0,0,0,0,0,0,0,0,0,0,0,0,0,0,0,0,0,0,0,0,0,
0,0,0,0,0,0,0,0,0,0,0,0,0,0,0,0,0,0,0,0,0,0,0,0,0,0,0,0,0,0,0,0,0,0,0,0,0,0,0,0,0,0,0,0,0,0,0,0,0,0,
0,0,0,0,0,0,0,0,0,0,0,0,0,0,0,0,0,0,0,0,0,0,0,0,0,0,0,0,0,0,0,0,0,0,0,0,0,0,0,0,0,0,0,0,0,0,0,0,0,0,
0,0,0,0,0,0,0,0,0,0,0,0,0,0,0,0,0,0,0,0,0,0,0,0,0,0,0,0,0,0,0,0,0,0,0,0,0,0,0,0,0,0,0,0,0,0,0,0,0,0,
0,0,0,0,0,0,0,0,0,0,0,0,0,0,0,0,0,0,0,0,0,0,0,0,0,0,0,0,0,0,0,0,0,0,0,0,0,0,0,0,0,0,0,0,0,0,0,0,0,0,
0,0,0,0,0,0,0,0,0,0,0,0,0,0,0,0,0,0,0,0,0,0,0,0,0,0,0,0,0,0,0,0,0,0,0,0,0,0,0,0,0,0,0,0,0,0,0,0,0,0,
0,0,0,0,0,0,0,0,0,0,0,0,0,0,0,0,0,0,0,0,0,0,0,0,0,0,0,0,0,0,0,0,0,0,0,0,0,0,0,0,0,0,0,0,0,0,0,0,0,0,
0,0,0,0,0,0,0,0,0,0,0,0,0,0,0,0,0,0,0,0,0,0,0,0,0,0,0,0,0,0,0,0,0,0,0,0,0,0,0,0,0,0,0,0,0,0,0,0,0,0,
0,0,0,0,0,0,0,0,0,0,0,0,0,0,0,0,0,0,0,0,0,0,0,0,0,0,0,0,0,0,0,0,0,0,0,0,0,0,0,0,0,0,0,0,0,0,0,0,0,0,
0,0,0,0,0,0,0,0,0,0,0,0,0,0,0,0,0,0,0,0,0,0,0,0,0,0,0,0,0,0,0,0,0,0,0,0,0,0,0,0,0,0,0,0,0,0,0,0,0,0,
0,0,0,0,0,0,0,0,0,0,0,0,0,0,0,0,0,0,0,0,0,0,0,0,0,0,0,0,0,0,0,0,0,0,0,0,0,0,0,0,0,0,0,0,0,0,0,0,0,0,
0,0,0,0,0,0,0,0,0,0,0,0,0,0,0,0,0,0,0,0,0,0,0,0,0,0,0,0,0,0,0,0,0,0,0,0,0,0,0,0,0,0,0,0,0,0,0,0,0,0,
0,0,0,0,0,0,0,0,0,0,0,0,0,0,0,0,0,0,0,0,0,0,0,0,0,0,0,0,0,0,0,0,0,0,0,0,0,0,0,0,0,0,0,0,0,0,0,0,0,0,
0,0,0,0,0,0,0,0,0,0,0,0,0,0,0,0,0,0,0,0,0,0,0,0,0,0,0,0,0,0,0,0,0,0,0,0,0,0,0,0,0,0,0,0,0,0,0,0,0,0,
0,0,0,0,0,0,0,0,0,0,0,0,0,0,0,0,0,0,0,0,0,0,0,0,0,0,0,0,0,0,0,0,0,0,0,0,0,0,0,0,0,0,0,0,0,0,0,0,0,0,
0,0,0,0,0,0,0,0,0,0,0,0,0,0,0,0,0,0,0,0,0,0,0,0,0,0,0,0,0,0,0,0,0,0,0,0,0,0,0,0,0,0,0,0,0,0,0,0,0,0,
0,0,0,0,0,0,0,0,0,0,0,0,0,0,0,0,0,0,0,0,0,0,0,0,0,0,0,0,0,0,0,0,0,0,0,0,0,0,0,0,0,0,0,0,0,0,0,0,0,0,
0,0,0,0,0,0,0,0,0,0,0,0,0,0,0,0,0,0,0,0,0,0,0,0,0,0,0,0,0,0,0,0,0,0,0,0,0,0,0,0,0,0,0,0,0,0,0,0,0,0,
0,0,0,0,0,0,0,0,0,0,0,0,0,0,0,0,0,0,0,0,0,0,0,0,0,0,0,0,0,0,0,0,0,0,0,0,0,0,0,0,0,0,0,0,0,0,0,0,0,0,
0,0,0,0,0,0,0,0,0,0,0,0,0,0,0,0,0,0,0,0,0,0,0,0,37,38,0,0,0,0,0,0,0,0,0,0,0,0,0,0,0,0,0,0,0,0,0,0,0,0,
0,0,0,0,0,0,0,0,0,0,0,0,0,0,0,0,0,0,0,0,0,0,0,0,39,40,0,0,0,0,0,0,0,0,0,0,0,0,0,0,0,0,0,0,0,0,0,0,0,0,
0,0,0,0,0,0,0,0,0,0,0,0,0,0,0,0,0,0,0,0,0,0,0,0,0,0,0,0,0,0,0,0,0,0,0,0,0,0,0,0,0,0,0,0,0,0,0,0,0,0,
0,0,0,0,0,0,0,0,0,0,0,0,0,0,0,0,0,0,0,0,0,0,0,0,0,0,0,0,0,0,0,0,0,0,0,0,0,0,0,0,0,0,0,0,0,0,0,0,0,0,
0,0,0,0,0,0,0,0,0,0,0,0,0,0,0,0,0,0,0,0,0,0,0,0,0,0,0,0,0,0,0,0,0,0,0,0,0,0,0,0,0,0,0,0,0,0,0,0,0,0,
0,0,0,0,0,0,0,0,0,0,0,0,0,0,0,0,0,0,0,0,0,0,0,0,0,0,0,0,0,0,0,0,0,0,0,0,0,0,0,0,0,0,0,0,0,0,0,0,0,0,
0,0,0,0,0,0,0,0,0,0,0,0,0,0,0,0,0,0,0,0,0,0,0,0,0,0,0,0,0,0,0,0,0,0,0,0,0,0,0,0,0,0,0,0,0,0,0,0,0,0,
0,0,0,0,0,0,0,0,0,0,0,0,0,0,0,0,0,0,0,0,0,0,0,0,0,0,0,0,0,0,0,0,0,0,0,0,0,0,0,0,0,0,0,0,0,0,0,0,0,0,
0,0,0,0,0,0,0,0,0,0,0,0,0,0,0,0,0,0,0,0,0,0,0,0,0,0,0,0,0,0,0,0,0,0,0,0,0,0,0,0,0,0,0,0,0,0,0,0,0,0,
0,0,0,0,0,0,0,0,0,0,0,0,0,0,0,0,0,0,0,0,0,0,0,0,0,0,0,0,0,0,0,0,0,0,0,0,0,0,0,0,0,0,0,0,0,0,0,0,0,0,
0,0,0,0,0,0,0,0,0,0,0,0,0,0,0,0,0,0,0,0,0,0,0,0,0,0,0,0,0,0,0,0,0,0,0,0,0,0,0,0,0,0,0,0,0,0,0,0,0,0,
0,0,0,0,0,0,0,0,0,0,0,0,0,0,0,0,0,0,0,0,0,0,0,0,0,0,0,0,0,0,0,0,0,0,0,0,0,0,0,0,0,0,0,0,0,0,0,0,0,0,
0,0,0,0,0,0,0,0,0,0,0,0,0,0,0,0,0,0,0,0,0,0,0,0,0,0,0,0,0,0,0,0,0,0,0,0,0,0,0,0,0,0,0,0,0,0,0,0,0,0,
0,0,0,0,0,0,0,0,0,0,0,0,0,0,0,0,0,0,0,0,0,0,0,0,0,0,0,0,0,0,0,0,0,0,0,0,0,0,0,0,0,0,0,0,0,0,0,0,0,0,
0,0,0,0,0,0,0,0,0,0,0,0,0,0,0,0,0,0,0,0,0,0,0,0,0,0,0,0,0,0,0,0,0,0,0,0,0,0,0,0,0,0,0,0,0,0,0,0,0,0,
0,0,0,0,0,0,0,0,0,0,0,0,0,0,0,0,0,0,0,0,0,0,0,0,0,0,0,0,0,0,0,0,0,0,0,0,0,0,0,0,0,0,0,0,0,0,0,0,0,0,
0,0,0,0,0,0,0,0,0,0,0,0,0,0,0,0,0,0,0,0,0,0,0,0,0,0,0,0,0,0,0,0,0,0,0,0,0,0,0,0,0,0,0,0,0,0,0,0,0,0,
0,0,0,0,0,0,0,0,0,0,0,0,0,0,0,0,0,0,0,0,0,0,0,0,0,0,0,0,0,0,0,0,0,0,0,0,0,0,0,0,0,0,0,0,0,0,0,0,0,0,
0,0,0,0,0,0,0,0,0,0,0,0,0,0,0,0,0,0,0,0,0,0,0,0,0,0,0,0,0,0,0,0,0,0,0,0,0,0,0,0,0,0,0,0,0,0,0,0,0,0,
0,0,0,0,0,0,0,0,0,0,0,0,0,0,0,0,0,0,0,0,0,0,0,0,0,0,0,0,0,0,0,0,0,0,0,0,0,0,0,0,0,0,0,0,0,0,0,0,0,0,
0,0,0,0,0,0,0,0,0,0,0,0,0,0,0,0,0,0,0,0,0,0,0,0,0,0,0,0,0,0,0,0,0,0,0,0,0,0,0,0,0,0,0,0,0,0,0,0,0,0,
0,0,0,0,0,0,0,0,0,0,0,0,0,0,0,0,0,0,0,0,0,0,0,0,0,0,0,0,0,0,0,0,0,0,0,0,0,0,0,0,0,0,0,0,0,0,0,0,0,0,
0,0,0,0,0,0,0,0,0,0,0,0,0,0,0,0,0,0,0,0,0,0,0,0,0,0,0,0,0,0,0,0,0,0,0,0,0,0,0,0,0,0,0,0,0,0,0,0,0,0,
0,0,0,0,0,0,0,0,0,0,0,0,0,0,0,0,0,0,0,0,0,0,0,0,0,0,0,0,0,0,0,0,0,0,0,0,0,0,0,0,0,0,0,0,0,0,0,0,0,0,
0,0,0,0,0,0,0,0,0,0,0,0,0,0,0,0,0,0,0,0,0,0,0,0,0,0,0,0,0,0,0,0,0,0,0,0,0,0,0,0,0,0,0,0,0,0,0,0,0,0,
0,0,0,0,0,0,0,0,0,0,0,0,0,0,0,0,0,0,0,0,0,0,0,0,0,0,0,0,0,0,0,0,0,0,0,0,0,0,0,0,0,0,0,0,0,0,0,0,0,0
</data>
 </layer>
 <layer id="3" name="building layer" width="50" height="50">
  <data encoding="csv">
0,0,0,0,0,0,0,0,0,0,0,0,0,0,0,0,0,0,0,0,0,0,0,0,0,0,0,0,0,0,0,0,0,0,0,0,0,0,0,0,0,0,0,0,0,0,0,0,0,0,
0,0,0,0,0,0,0,0,0,0,0,0,0,0,0,0,0,0,0,0,0,0,0,0,0,0,0,0,0,0,0,0,0,0,0,0,0,0,0,0,0,0,0,0,0,0,0,0,0,0,
0,0,0,0,0,0,0,0,0,0,0,0,0,0,0,0,0,0,35,36,36,36,36,36,36,36,36,36,36,36,36,2147483683,0,0,0,0,0,0,0,0,0,0,0,0,0,0,0,0,0,0,
0,0,0,0,0,0,0,0,0,0,0,0,0,0,0,0,0,0,33,34,34,34,34,34,34,34,34,34,34,34,34,2147483681,0,0,0,0,0,0,0,0,0,0,0,0,0,0,0,0,0,0,
0,0,0,0,0,0,0,0,0,0,0,0,0,0,0,0,0,0,32,23,21,23,21,31,23,21,31,23,21,23,21,2147483680,0,0,0,0,0,0,0,0,0,0,0,0,0,0,0,0,0,0,
0,0,0,0,0,0,0,0,0,0,0,0,0,0,0,0,0,0,29,23,21,23,21,30,21,23,30,23,21,23,21,2147483677,0,0,0,0,0,0,0,0,0,0,0,0,0,0,0,0,0,0,
0,0,0,0,0,0,0,0,0,0,0,0,0,0,0,0,0,0,29,21,23,21,21,30,26,2147483674,30,23,21,23,21,2147483677,0,0,0,0,0,0,0,0,0,0,0,0,0,0,0,0,0,0,
0,0,0,0,0,0,0,0,0,0,0,0,0,0,0,0,0,0,27,22,24,22,22,28,25,2147483673,28,22,24,22,24,2147483675,0,0,0,0,0,0,0,0,0,0,0,0,0,0,0,0,0,0,
0,0,0,0,0,0,0,0,0,0,0,0,0,0,0,0,0,0,20,20,20,15,16,16,16,16,16,16,2147483663,20,20,20,0,0,0,0,0,0,0,0,0,0,0,0,0,0,0,0,0,0,
0,0,0,0,0,0,0,0,0,0,0,0,0,0,0,0,0,0,0,0,0,18,19,19,19,19,19,19,2147483666,0,0,0,0,0,0,0,0,0,0,0,0,0,0,0,0,0,0,0,0,0,
0,0,0,0,0,0,0,0,0,0,0,0,0,0,0,0,0,0,0,0,0,0,0,0,0,0,0,0,0,0,0,0,0,0,0,0,0,0,0,0,0,0,0,0,0,0,0,0,0,0,
0,0,0,0,0,0,0,0,0,0,0,0,0,0,0,0,0,0,0,0,0,0,0,0,0,0,0,0,0,0,0,0,0,0,0,0,0,0,0,0,0,0,0,0,0,0,0,0,0,0,
0,0,0,0,0,0,0,0,0,0,0,0,0,0,0,0,0,0,0,0,0,0,0,0,0,0,0,0,0,0,0,0,0,0,0,0,0,0,0,0,0,0,0,0,0,0,0,0,0,0,
0,0,0,0,0,0,0,0,0,0,0,0,0,0,0,0,0,0,0,0,0,0,0,0,0,0,0,0,0,0,0,0,0,0,0,0,0,0,0,0,0,0,0,0,0,0,0,0,0,0,
0,0,0,0,0,0,0,0,0,0,0,0,0,0,0,0,0,0,0,0,0,0,0,0,0,0,0,0,0,0,0,0,0,0,0,0,0,0,0,0,0,0,0,0,0,0,0,0,0,0,
0,0,0,0,0,0,0,0,0,0,0,0,0,0,0,0,0,0,0,0,0,0,0,0,0,0,0,0,0,0,0,0,0,0,0,0,0,0,0,0,0,0,0,0,0,0,0,0,0,0,
0,0,0,0,0,0,0,0,0,0,0,0,0,0,0,0,0,0,0,0,0,0,0,0,0,0,0,0,0,0,0,0,0,0,0,0,0,0,0,0,0,0,0,0,0,0,0,0,0,0,
0,0,0,0,0,0,0,0,0,0,0,0,0,0,0,0,0,0,0,0,0,0,0,0,0,0,0,0,0,0,0,0,0,0,0,0,0,0,0,0,0,0,0,0,0,0,0,0,0,0,
0,0,0,0,0,0,0,0,0,0,0,0,0,0,0,0,0,0,0,0,0,0,0,0,0,0,0,0,0,0,0,0,0,0,0,0,0,0,0,0,0,0,0,0,0,0,0,0,0,0,
0,0,0,0,0,0,0,0,0,0,0,0,0,0,0,0,0,0,0,0,0,0,0,0,0,0,0,0,0,0,0,0,0,0,0,0,0,0,0,0,0,0,0,0,0,0,0,0,0,0,
0,0,0,0,0,0,0,0,0,0,0,0,0,0,0,0,0,0,0,0,0,0,0,0,0,0,0,0,0,0,0,0,0,0,0,0,0,0,0,0,0,0,0,0,0,0,0,0,0,0,
0,0,0,0,0,0,0,0,0,0,0,0,0,0,0,0,0,0,0,0,0,0,0,0,0,0,0,0,0,0,0,0,0,0,0,0,0,0,0,0,0,0,0,0,0,0,0,0,0,0,
0,0,0,0,0,0,0,0,0,0,0,0,0,0,0,0,0,0,0,0,0,0,0,0,0,0,0,0,0,0,0,0,0,0,0,0,0,0,0,0,0,0,0,0,0,0,0,0,0,0,
0,0,0,0,0,0,0,0,0,0,0,0,0,0,0,0,0,0,0,0,0,0,0,0,0,0,0,0,0,0,0,0,0,0,0,0,0,0,0,0,0,0,0,0,0,0,0,0,0,0,
0,0,0,0,0,0,0,0,0,0,0,0,0,0,0,0,0,0,0,0,0,0,0,0,0,0,0,0,0,0,0,0,0,0,0,0,0,0,0,0,0,0,0,0,0,0,0,0,0,0,
0,0,0,0,0,0,0,0,0,0,0,0,0,0,0,0,0,0,0,0,0,0,0,0,0,0,0,0,0,0,0,0,0,0,0,0,0,0,0,0,0,0,0,0,0,0,0,0,0,0,
0,0,0,0,0,0,0,0,0,0,0,0,0,0,0,0,0,0,0,0,0,0,0,0,0,0,0,0,0,0,0,0,0,0,0,0,0,0,0,0,0,0,0,0,0,0,0,0,0,0,
0,0,0,0,0,0,0,0,0,0,0,0,0,0,0,0,0,0,0,0,0,0,0,0,0,0,0,0,0,0,0,0,0,0,0,0,0,0,0,0,0,0,0,0,0,0,0,0,0,0,
0,0,0,0,0,0,0,0,0,0,0,0,0,0,0,0,0,0,0,0,0,0,0,0,0,0,0,0,0,0,0,0,0,0,0,0,0,0,0,0,0,0,0,0,0,0,0,0,0,0,
0,0,0,0,0,0,0,0,0,0,0,0,0,0,0,0,0,0,0,0,0,0,0,0,0,0,0,0,0,0,0,0,0,0,0,0,0,0,0,0,0,0,0,0,0,0,0,0,0,0,
0,0,0,0,0,0,0,0,0,0,0,0,0,0,0,0,0,0,0,0,0,0,0,0,0,0,0,0,0,0,0,0,0,0,0,0,0,0,0,0,0,0,0,0,0,0,0,0,0,0,
0,0,0,0,0,0,0,0,0,0,0,0,0,0,0,0,0,0,0,0,0,0,0,0,0,0,0,0,0,0,0,0,0,0,0,0,0,0,0,0,0,0,0,0,0,0,0,0,0,0,
0,0,0,0,0,0,0,0,0,0,0,0,0,0,0,0,0,0,0,0,0,0,0,0,0,0,0,0,0,0,0,0,0,0,0,0,0,0,0,0,0,0,0,0,0,0,0,0,0,0,
0,0,0,0,0,0,0,0,0,0,0,0,0,0,0,0,0,0,0,0,0,0,0,0,0,0,0,0,0,0,0,0,0,0,0,0,0,0,0,0,0,0,0,0,0,0,0,0,0,0,
0,0,0,0,0,0,0,0,0,0,0,0,0,0,0,0,0,0,0,0,0,0,0,0,0,0,0,0,0,0,0,0,0,0,0,0,0,0,0,0,0,0,0,0,0,0,0,0,0,0,
0,0,0,0,0,0,0,0,0,0,0,0,0,0,0,0,0,0,0,0,0,0,0,0,0,0,0,0,0,0,0,0,0,0,0,0,0,0,0,0,0,0,0,0,0,0,0,0,0,0,
0,0,0,0,0,0,0,0,0,0,0,0,0,0,0,0,0,0,0,0,0,0,0,0,0,0,0,0,0,0,0,0,0,0,0,0,0,0,0,0,0,0,0,0,0,0,0,0,0,0,
0,0,0,0,0,0,0,0,0,0,0,0,0,0,0,0,0,0,0,0,0,0,0,0,0,0,0,0,0,0,0,0,0,0,0,0,0,0,0,0,0,0,0,0,0,0,0,0,0,0,
0,0,0,0,0,0,0,0,0,0,0,0,0,0,0,0,0,0,0,0,0,0,0,0,0,0,0,0,0,0,0,0,0,0,0,0,0,0,0,0,0,0,0,0,0,0,0,0,0,0,
0,0,0,0,0,0,0,0,0,0,0,0,0,0,0,0,0,0,0,0,0,0,0,0,0,0,0,0,0,0,0,0,0,0,0,0,0,0,0,0,0,0,0,0,0,0,0,0,0,0,
0,0,0,0,0,0,0,0,0,0,0,0,0,0,0,0,0,0,0,0,0,0,0,0,0,0,0,0,0,0,0,0,0,0,0,0,0,0,0,0,0,0,0,0,0,0,0,0,0,0,
0,0,0,0,0,0,0,0,0,0,0,0,0,0,0,0,0,0,0,0,0,0,0,0,0,0,0,0,0,0,0,0,0,0,0,0,0,0,0,0,0,0,0,0,0,0,0,0,0,0,
0,0,0,0,0,0,0,0,0,0,0,0,0,0,0,0,0,0,0,0,0,0,0,0,0,0,0,0,0,0,0,0,0,0,0,0,0,0,0,0,0,0,0,0,0,0,0,0,0,0,
0,0,0,0,0,0,0,0,0,0,0,0,0,0,0,0,0,0,0,0,0,0,0,0,0,0,0,0,0,0,0,0,0,0,0,0,0,0,0,0,0,0,0,0,0,0,0,0,0,0,
0,0,0,0,0,0,0,0,0,0,0,0,0,0,0,0,0,0,0,0,0,0,0,0,0,0,0,0,0,0,0,0,0,0,0,0,0,0,0,0,0,0,0,0,0,0,0,0,0,0,
0,0,0,0,0,0,0,0,0,0,0,0,0,0,0,0,0,0,0,0,0,0,0,0,0,0,0,0,0,0,0,0,0,0,0,0,0,0,0,0,0,0,0,0,0,0,0,0,0,0,
0,0,0,0,0,0,0,0,0,0,0,0,0,0,0,0,0,0,0,0,0,0,0,0,0,0,0,0,0,0,0,0,0,0,0,0,0,0,0,0,0,0,0,0,0,0,0,0,0,0,
0,0,0,0,0,0,0,0,0,0,0,0,0,0,0,0,0,0,0,0,0,0,0,0,0,0,0,0,0,0,0,0,0,0,0,0,0,0,0,0,0,0,0,0,0,0,0,0,0,0,
0,0,0,0,0,0,0,0,0,0,0,0,0,0,0,0,0,0,0,0,0,0,0,0,0,0,0,0,0,0,0,0,0,0,0,0,0,0,0,0,0,0,0,0,0,0,0,0,0,0,
0,0,0,0,0,0,0,0,0,0,0,0,0,0,0,0,0,0,0,0,0,0,0,0,0,0,0,0,0,0,0,0,0,0,0,0,0,0,0,0,0,0,0,0,0,0,0,0,0,0
</data>
 </layer>
 <layer id="2" name="overlay layer" width="50" height="50">
  <data encoding="csv">
0,0,0,0,0,0,0,0,0,0,0,0,0,0,0,0,0,0,0,0,0,0,0,0,0,0,0,0,0,0,0,0,0,0,0,0,0,0,0,0,0,0,0,0,0,0,0,0,11,14,
0,11,14,0,0,0,0,0,0,0,0,0,0,0,0,0,0,0,0,0,0,0,0,0,0,0,0,0,0,0,0,0,0,0,0,0,0,0,0,0,0,11,14,0,0,0,0,0,13,12,
0,13,12,0,0,0,0,0,0,0,0,0,0,0,0,0,0,0,0,0,0,0,0,0,0,0,0,0,0,0,0,0,0,0,0,0,0,0,0,0,0,13,12,0,0,0,0,0,0,0,
0,0,0,0,0,0,0,0,0,0,0,0,0,0,0,0,0,0,0,0,0,0,0,0,0,0,0,0,0,0,0,0,0,0,0,0,0,0,0,0,0,0,0,0,0,0,0,0,11,14,
0,0,0,0,0,0,0,0,0,0,0,0,0,0,0,0,0,0,0,0,0,0,0,0,0,0,0,0,0,0,0,0,0,0,0,0,0,0,0,0,0,0,0,0,0,0,0,0,13,12,
0,0,0,0,0,0,0,0,0,0,0,0,0,0,0,0,0,0,0,0,0,0,0,0,0,0,0,0,0,0,0,0,0,0,0,0,0,0,0,0,0,0,0,0,0,0,0,0,0,0,
0,0,0,0,0,0,0,0,0,0,0,0,0,0,0,0,0,0,0,0,0,0,0,0,0,0,0,0,0,0,0,0,0,0,0,0,0,0,0,0,0,0,0,0,0,0,0,0,0,0,
0,0,0,0,0,0,0,0,0,0,0,0,0,0,0,0,0,0,0,0,0,0,0,0,0,0,0,0,0,0,0,0,0,0,0,0,0,0,0,0,0,11,14,0,0,11,14,0,0,0,
0,0,0,0,0,0,0,0,0,0,0,0,0,0,0,0,0,0,0,0,0,0,0,0,0,0,0,0,0,0,0,0,0,0,0,0,0,0,0,0,0,13,12,0,0,11,14,0,0,0,
0,0,0,0,0,0,0,11,14,0,0,0,0,0,0,0,0,0,0,0,0,0,0,0,0,0,0,0,0,0,0,0,0,0,0,0,0,0,0,0,0,0,0,0,0,13,12,0,0,0,
0,0,0,0,0,0,0,13,12,0,0,0,0,0,0,0,0,0,0,0,0,0,0,0,0,0,0,0,0,0,0,0,0,0,0,0,0,0,0,0,0,0,0,0,0,0,0,0,0,0,
0,0,0,0,0,0,0,0,0,0,0,0,0,0,0,0,0,0,0,0,0,0,0,0,0,0,0,0,0,0,0,0,0,0,0,0,0,0,0,0,0,0,0,0,0,0,0,0,0,0,
0,0,0,0,0,0,0,0,0,0,0,0,0,0,0,0,0,0,0,0,0,0,0,0,0,0,0,0,0,0,0,0,0,0,0,0,0,0,0,0,0,0,0,0,0,0,0,0,0,0,
0,11,14,0,0,0,0,0,0,0,0,0,0,0,0,0,0,0,0,0,0,11,14,0,0,0,0,0,0,0,0,0,0,0,0,0,0,0,0,0,0,11,14,0,0,0,0,0,0,0,
0,13,12,0,0,0,0,0,0,0,0,0,0,0,0,0,0,0,0,0,0,13,12,0,0,0,0,0,0,0,0,0,0,0,0,0,0,0,0,0,0,13,12,0,0,0,0,11,14,0,
0,0,0,0,0,0,0,0,0,0,0,0,0,0,0,0,0,0,0,0,0,0,0,0,0,0,0,0,0,0,0,0,0,0,0,0,0,0,0,0,0,0,0,0,0,0,0,13,12,0,
0,0,0,0,0,0,0,0,0,0,0,0,0,0,0,0,0,0,0,0,0,0,0,0,0,0,0,0,0,0,0,0,0,0,0,0,0,0,0,0,0,0,0,0,0,0,0,0,0,0,
0,0,0,0,0,0,0,0,0,0,0,0,0,0,0,0,0,0,0,0,0,0,0,0,0,0,0,0,0,0,11,14,0,0,0,0,0,0,0,0,0,0,0,0,0,0,0,0,0,0,
0,0,0,0,0,0,0,0,0,0,0,0,0,0,0,0,0,0,0,0,0,0,0,0,0,0,0,0,0,0,13,12,0,0,0,0,0,0,0,0,0,0,0,0,0,0,0,0,0,0,
0,0,0,0,0,0,0,0,0,0,0,0,0,0,0,0,0,0,0,0,0,0,0,0,0,0,0,0,0,0,0,0,0,0,0,0,0,0,0,0,0,0,0,0,0,0,0,0,0,0,
0,0,0,0,0,0,0,0,0,0,0,11,14,0,0,0,0,11,14,0,0,0,0,0,0,0,0,0,0,0,0,0,0,0,0,0,0,0,0,0,0,0,0,0,0,0,0,0,0,0,
0,0,0,0,0,0,0,0,0,0,0,13,12,0,0,0,0,13,12,0,0,0,0,0,0,0,0,0,0,0,0,0,0,0,0,0,0,0,0,0,0,0,0,0,0,0,0,0,0,0,
0,0,0,0,0,0,0,0,0,0,0,0,0,0,0,0,0,0,0,0,0,0,0,0,0,0,0,0,0,0,0,0,0,0,0,0,0,0,0,0,0,0,0,0,0,0,0,0,0,0,
0,0,0,0,0,0,0,0,0,0,0,0,0,0,0,0,0,0,0,0,0,0,0,0,0,0,0,0,0,0,0,0,0,0,0,0,0,0,0,0,0,0,0,0,0,0,0,0,0,0,
11,14,0,0,0,0,0,0,0,0,0,0,0,0,0,0,0,0,0,0,0,0,0,0,0,0,0,0,0,0,0,0,0,0,0,0,0,0,0,0,0,0,0,0,0,0,0,0,11,14,
13,12,0,0,0,0,0,0,0,0,0,0,0,0,0,0,0,0,0,0,0,0,0,0,0,0,0,0,0,0,0,0,0,0,0,0,0,0,0,0,0,0,0,0,0,0,0,0,13,12,
0,0,0,0,0,0,0,0,0,0,0,0,0,0,0,0,0,0,0,0,0,0,0,0,0,0,0,0,0,0,0,0,0,0,0,0,0,0,0,0,0,0,0,0,0,0,0,0,0,0,
0,0,0,0,0,0,0,0,0,0,0,11,14,0,0,0,0,0,0,0,0,0,0,0,0,0,0,0,0,0,0,0,0,0,0,0,0,0,0,0,0,0,0,0,0,0,0,0,0,0,
0,0,0,0,0,0,0,0,0,0,0,13,12,0,0,0,0,0,0,0,0,0,0,0,0,0,0,0,0,0,0,0,0,0,0,0,0,0,0,0,0,0,0,0,0,0,0,0,0,0,
0,0,0,0,0,0,0,0,0,0,0,0,0,0,0,0,0,0,0,0,0,0,0,0,0,0,0,0,0,0,0,11,14,0,0,0,0,0,0,0,0,0,0,0,0,0,0,11,14,0,
0,0,0,0,0,0,0,0,0,0,0,0,0,0,0,0,0,0,0,11,14,0,0,0,0,0,0,0,0,0,0,13,12,0,0,0,0,0,0,0,0,0,0,0,0,0,0,13,12,0,
0,0,0,0,0,0,0,0,0,0,0,0,0,0,0,0,0,0,0,13,12,0,0,0,0,0,0,0,0,0,0,0,0,0,0,0,0,0,0,0,0,0,0,0,0,0,0,0,0,0,
0,0,0,0,0,0,0,0,0,0,11,14,0,0,0,0,0,0,0,0,0,0,0,0,0,0,0,0,0,0,0,0,0,0,0,0,0,0,0,0,0,0,0,0,0,0,0,0,0,0,
0,0,0,0,0,0,0,0,0,0,13,12,0,0,0,0,0,0,0,0,0,0,0,0,0,0,0,0,0,0,0,0,0,0,0,0,0,0,0,0,11,14,0,0,0,0,0,0,0,0,
0,11,14,0,0,0,0,0,0,0,0,0,0,0,0,0,0,0,0,0,0,0,0,0,0,0,0,0,0,0,0,0,0,0,0,0,0,0,0,0,13,12,0,0,0,0,0,11,14,0,
0,13,12,0,0,0,0,0,0,0,0,0,0,0,0,0,0,0,11,14,0,0,0,0,0,0,0,0,0,0,0,0,0,0,0,0,0,0,0,0,0,0,0,0,0,0,0,13,12,0,
0,0,0,0,0,0,0,11,14,0,0,0,0,0,0,0,0,0,13,12,0,0,0,0,0,0,0,0,0,0,0,0,0,0,0,0,0,0,0,0,0,0,0,0,0,0,0,0,0,0,
0,0,0,0,0,0,0,13,12,0,0,0,0,0,0,0,0,0,0,0,0,0,0,0,0,0,0,0,0,0,0,0,0,0,0,0,0,0,0,0,0,0,0,0,0,0,0,0,0,0,
0,0,0,0,0,0,0,0,0,0,0,0,0,0,0,0,0,0,0,0,0,0,0,0,0,0,0,0,0,0,0,11,14,0,0,0,0,0,0,0,0,0,11,14,0,0,0,0,0,0,
0,0,0,0,0,0,0,0,0,0,0,0,0,0,0,0,0,0,0,0,0,0,0,0,0,0,0,0,0,0,0,13,12,0,0,0,0,0,0,0,0,0,13,12,0,0,0,0,0,0,
0,0,0,0,0,0,0,0,0,0,0,0,0,0,0,0,0,0,0,0,0,0,0,0,0,0,0,0,0,0,0,0,0,0,0,0,11,14,0,0,0,0,0,0,0,0,0,0,0,0,
0,0,0,0,0,0,0,0,0,0,0,0,0,0,0,0,0,0,0,0,0,0,0,0,0,0,0,0,0,0,0,0,0,0,0,0,13,12,0,0,0,0,0,0,0,0,0,0,0,0,
0,0,0,0,0,0,0,0,0,0,0,0,0,0,0,0,0,11,14,0,0,0,0,0,0,0,0,0,0,0,0,0,0,0,0,0,0,0,0,0,0,0,0,0,0,0,0,0,0,0,
0,0,0,0,0,0,0,0,0,0,0,0,0,0,0,0,0,13,12,0,0,0,0,0,0,0,0,0,0,0,0,0,0,0,0,0,0,0,0,0,0,0,0,0,0,0,0,0,0,0,
11,14,0,0,0,0,0,0,0,0,0,0,0,0,0,0,0,0,0,0,0,0,0,0,0,0,0,0,0,0,0,0,0,0,0,0,0,0,0,0,0,0,0,0,0,0,0,0,11,14,
13,12,0,0,0,0,0,0,0,0,0,0,0,0,0,0,0,0,0,0,0,0,0,0,0,0,0,0,0,0,0,0,0,0,0,0,0,0,0,0,0,0,0,0,0,0,0,0,13,12,
0,0,0,0,0,0,0,0,0,0,0,0,0,0,0,0,0,0,0,0,0,0,0,0,0,0,0,0,0,0,0,0,0,0,11,14,0,0,0,0,0,0,0,0,0,0,0,0,0,0,
0,0,0,0,0,0,0,0,0,0,0,0,0,11,14,0,0,0,0,0,0,0,0,0,0,0,0,0,0,0,0,0,0,0,13,12,0,0,0,0,0,0,0,0,0,0,0,0,0,0,
0,0,0,0,11,14,0,0,0,0,0,0,0,13,12,0,0,0,0,0,0,0,0,0,11,14,0,0,0,0,0,0,0,0,0,0,0,0,0,0,0,0,0,0,11,14,0,0,0,0,
0,0,0,0,13,12,0,0,0,0,0,0,0,0,0,0,0,0,0,0,0,0,0,0,13,12,0,0,0,0,0,0,0,0,0,0,0,0,0,0,0,0,0,0,13,12,0,0,0,0
</data>
 </layer>
</map>
