<?xml version="1.0" encoding="UTF-8"?>
<map version="1.10" tiledversion="1.11.2" orientation="orthogonal" renderorder="right-down" width="30" height="30" tilewidth="16" tileheight="16" infinite="0" nextlayerid="7" nextobjectid="21">
 <editorsettings>
  <export target="hq_interiors_v2.tmj" format="json"/>
 </editorsettings>
 <tileset firstgid="1" name="bug" tilewidth="16" tileheight="16" tilecount="4" columns="4">
  <image source="../../../../testscene/hq interiors/bug.png" width="64" height="16"/>
  <tile id="0">
   <animation>
    <frame tileid="0" duration="200"/>
    <frame tileid="1" duration="200"/>
    <frame tileid="2" duration="200"/>
    <frame tileid="3" duration="200"/>
   </animation>
  </tile>
 </tileset>
 <tileset firstgid="5" name="walled" tilewidth="16" tileheight="16" tilecount="6" columns="6">
  <image source="../../../../testscene/walled.png" width="96" height="16"/>
 </tileset>
 <tileset firstgid="11" name="hq_floor-sheet" tilewidth="16" tileheight="16" tilecount="2" columns="2">
  <image source="../../../../testscene/hq interiors/hq_floor-sheet.png" width="32" height="16"/>
 </tileset>
 <tileset firstgid="13" name="elysia" tilewidth="16" tileheight="16" tilecount="12" columns="12">
  <image source="../../../../testscene/elysia.png" width="192" height="16"/>
 </tileset>
 <tileset firstgid="25" name="hqinteriorwall_floor" tilewidth="16" tileheight="16" tilecount="6" columns="6">
  <image source="../assets/tilesets/hqinterior/hqinteriorwall_floor.png" width="96" height="16"/>
 </tileset>
 <layer id="1" name="hq floor" width="30" height="30" locked="1">
  <data encoding="csv">
11,11,11,11,11,11,11,11,11,11,11,11,11,11,11,11,11,11,11,11,11,11,11,11,11,11,11,11,11,11,
11,11,11,11,11,11,11,11,11,11,11,11,11,11,11,11,11,11,11,11,11,11,11,11,11,11,11,11,11,11,
11,11,11,11,11,11,11,11,11,11,11,11,11,11,11,11,11,11,11,11,11,11,11,11,11,11,11,11,11,11,
11,11,11,11,11,11,11,11,11,11,11,11,11,11,11,11,11,11,11,11,11,11,11,11,11,11,11,11,11,11,
11,11,11,11,11,11,11,11,11,11,11,11,11,11,11,11,11,11,11,11,11,11,11,11,11,11,11,11,11,11,
11,11,11,11,11,11,11,11,11,11,11,11,11,11,11,11,11,11,11,11,11,11,11,11,11,11,11,11,11,11,
11,11,11,11,11,11,11,11,11,11,11,11,11,11,11,11,11,11,11,11,11,11,11,11,11,11,11,11,11,11,
11,11,11,11,11,11,11,11,11,11,11,11,11,11,11,11,11,11,11,11,11,11,11,11,11,11,11,11,11,11,
11,11,11,11,11,11,11,11,11,11,11,11,11,11,11,11,11,11,11,11,11,11,11,11,11,11,11,11,11,11,
11,11,11,11,11,11,11,11,11,11,11,11,11,11,11,11,11,11,11,11,11,11,11,11,11,11,11,11,11,11,
11,11,11,11,11,11,11,11,11,11,11,11,11,11,11,11,11,11,11,11,11,11,11,11,11,11,11,11,11,11,
11,11,11,11,11,11,11,11,11,11,11,11,11,11,11,11,11,11,11,11,11,11,11,11,11,11,11,11,11,11,
11,11,11,11,11,11,11,11,11,11,11,11,11,11,11,11,11,11,11,11,11,11,11,11,11,11,11,11,11,11,
11,11,11,11,11,11,11,11,11,11,11,11,11,11,11,11,11,11,11,11,11,11,11,11,11,11,11,11,11,11,
11,11,11,11,11,11,11,11,11,11,11,11,11,11,11,11,11,11,11,11,11,11,11,11,11,11,11,11,11,11,
11,11,11,11,11,11,11,11,11,11,11,11,11,11,11,11,11,11,11,11,11,11,11,11,11,11,11,11,11,11,
11,11,11,11,11,11,11,11,11,11,11,11,11,11,11,11,11,11,11,11,11,11,11,11,11,11,11,11,11,11,
11,11,11,11,11,11,11,11,11,11,11,11,11,11,11,11,11,11,11,11,11,11,11,11,11,11,11,11,11,11,
11,11,11,11,11,11,11,11,11,11,11,11,11,11,11,11,11,11,11,11,11,11,11,11,11,11,11,11,11,11,
11,11,11,11,11,11,11,11,11,11,11,11,11,11,11,11,11,11,11,11,11,11,11,11,11,11,11,11,11,11,
11,11,11,11,11,11,11,11,11,11,11,11,11,11,11,11,11,11,11,11,11,11,11,11,11,11,11,11,11,11,
11,11,11,11,11,11,11,11,11,11,11,11,11,11,11,11,11,11,11,11,11,11,11,11,11,11,11,11,11,11,
11,11,11,11,11,11,11,11,11,11,11,11,11,11,11,11,11,11,11,11,11,11,11,11,11,11,11,11,11,11,
11,11,11,11,11,11,11,11,11,11,11,11,11,11,11,11,11,11,11,11,11,11,11,11,11,11,11,11,11,11,
11,11,11,11,11,11,11,11,11,11,11,11,11,11,11,11,11,11,11,11,11,11,11,11,11,11,11,11,11,11,
11,11,11,11,11,11,11,11,11,11,11,11,11,11,11,11,11,11,11,11,11,11,11,11,11,11,11,11,11,11,
11,11,11,11,11,11,11,11,11,11,11,11,11,11,11,11,11,11,11,11,11,11,11,11,11,11,11,11,11,11,
11,11,11,11,11,11,11,11,11,11,11,11,11,11,11,11,11,11,11,11,11,11,11,11,11,11,11,11,11,11,
11,11,11,11,11,11,11,11,11,11,11,11,11,11,11,11,11,11,11,11,11,11,11,11,11,11,11,11,11,11,
11,11,11,11,11,11,11,11,11,11,11,11,11,12,11,11,12,11,11,11,11,11,11,11,11,11,11,11,11,11
</data>
 </layer>
 <layer id="2" name="hq walls" width="30" height="30">
  <data encoding="csv">
30,30,30,30,30,30,30,30,30,30,30,30,30,30,30,30,30,30,30,30,30,30,30,30,30,30,30,30,30,30,
30,28,28,28,28,28,28,28,28,28,28,28,28,28,28,28,28,28,28,28,28,28,28,28,28,28,28,28,28,30,
30,26,26,26,26,26,26,26,26,26,26,26,26,26,26,26,26,26,26,26,26,26,26,26,26,26,26,26,26,30,
30,0,0,0,0,0,0,0,0,0,0,0,0,0,0,0,0,0,0,0,0,0,0,0,0,0,0,0,0,30,
30,0,0,0,0,0,0,0,0,0,0,0,0,0,0,0,0,0,0,0,0,0,0,0,0,0,0,0,0,30,
30,0,0,0,0,0,0,0,0,0,0,0,0,0,0,0,0,0,0,0,0,0,0,0,0,0,0,0,0,30,
30,0,0,0,0,0,0,0,0,0,0,0,0,0,0,0,0,0,0,0,0,0,0,0,0,0,0,0,0,30,
30,0,0,0,0,0,0,0,0,0,0,0,0,0,0,0,0,0,0,0,0,0,0,0,0,0,0,0,0,30,
30,0,0,0,0,0,0,0,0,0,0,0,0,0,0,0,0,0,0,0,0,0,0,0,0,0,0,0,0,30,
30,0,0,0,0,0,0,0,0,0,0,0,0,0,0,0,0,0,0,0,0,0,0,0,0,0,0,0,0,30,
30,30,30,30,30,0,0,30,30,30,30,30,30,30,0,0,30,30,30,30,30,30,30,0,0,30,30,30,30,30,
30,28,28,28,28,0,0,28,28,28,30,28,28,29,0,0,2147483677,28,28,30,28,28,29,0,0,2147483677,28,28,28,30,
30,26,26,26,26,0,0,26,26,26,30,26,26,27,0,0,2147483675,26,26,30,26,26,27,0,0,2147483675,26,26,26,30,
30,0,0,0,0,0,0,0,0,0,30,0,0,0,0,0,0,0,0,30,0,0,0,0,0,0,0,0,0,30,
30,0,0,0,0,0,0,0,0,0,30,0,0,0,0,0,0,0,0,30,0,0,0,0,0,0,0,0,0,30,
30,0,0,0,0,0,0,0,0,0,30,0,0,0,0,0,0,0,0,30,0,0,0,0,0,0,0,0,0,30,
30,0,0,0,0,0,0,0,0,0,30,0,0,0,0,0,0,0,0,30,0,0,0,0,0,0,0,0,0,30,
30,0,0,0,0,0,0,0,0,0,30,0,0,0,0,0,0,0,0,30,0,0,0,0,0,0,0,0,0,30,
30,0,0,0,0,0,0,0,0,0,30,0,0,0,0,0,0,0,0,30,0,0,0,0,0,0,0,0,0,30,
30,0,0,0,0,0,0,0,0,0,30,0,0,0,0,0,0,0,0,30,0,0,0,0,0,0,0,0,0,30,
30,0,0,0,0,0,0,0,0,0,30,0,0,0,0,0,0,0,0,30,0,0,0,0,0,0,0,0,0,30,
30,0,0,0,0,0,0,0,0,0,30,0,0,0,0,0,0,0,0,30,0,0,0,0,0,0,0,0,0,30,
30,0,0,0,0,0,0,0,0,0,30,0,0,0,0,0,0,0,0,30,0,0,0,0,0,0,0,0,0,30,
30,0,0,0,0,0,0,0,0,0,30,0,0,0,0,0,0,0,0,30,0,0,0,0,0,0,0,0,0,30,
30,0,0,0,0,0,0,0,0,0,30,0,0,0,0,0,0,0,0,30,0,0,0,0,0,0,0,0,0,30,
30,0,0,0,0,0,0,0,0,0,30,0,0,0,0,0,0,0,0,30,0,0,0,0,0,0,0,0,0,30,
30,0,0,0,0,0,0,0,0,0,30,0,0,0,0,0,0,0,0,30,0,0,0,0,0,0,0,0,0,30,
30,0,0,0,0,0,0,0,0,0,30,0,0,0,0,0,0,0,0,30,0,0,0,0,0,0,0,0,0,30,
30,0,0,0,0,0,0,0,0,0,30,0,0,0,0,0,0,0,0,30,0,0,0,0,0,0,0,0,0,30,
30,30,30,30,30,30,30,30,30,30,30,30,30,12,28,28,12,30,30,30,30,30,30,30,30,30,30,30,30,30
</data>
 </layer>
 <objectgroup id="4" name="door objects" locked="1">
  <object id="10" name="hqdoor1" x="256.25" y="463.25" width="16" height="16"/>
  <object id="11" name="hqdoor2" x="208.5" y="463.5" width="16" height="16"/>
 </objectgroup>
 <objectgroup id="6" name="npc object" locked="1">
  <object id="16" name="elysia" x="287.5" y="400.25" width="16" height="16">
   <properties>
    <property name="elysia dialogue" value="[&quot;Oh, it's you.&quot;, &quot;This is just a precaution before you venture out on the outskirts of the city.&quot;, &quot;In front of you is a bug the guild members caught.&quot;, &quot;I want you to test it for a debugging battle, and prove that you are capable of handling them.&quot;, &quot;Good luck.&quot;]"/>
   </properties>
  </object>
  <object id="17" name="orin" x="208" y="383.667" width="16" height="16">
   <properties>
    <property name="orin dialogue" value="[&quot;Oh, it's you.&quot;, &quot;Let me give you a brief summary.&quot;, &quot;In front of you is a bug the guild members caught.&quot;, &quot;You will show me your skills as a debugger for the your future battles to come.&quot;, &quot;Good luck.&quot;]"/>
   </properties>
  </object>
  <object id="18" name="kaelen" x="176.333" y="416" width="16" height="16">
   <properties>
    <property name="kaelen dialogue" value="[&quot;Yo, buddy!&quot;, &quot;This is just a precaution before you venture out on the outskirts of the city.&quot;, &quot;In front of you is a bug that we, the guild members, have caught.&quot;, &quot;It is a struggle, but we want you to test it for a debugging battle, and prove that you are capable of handling them.&quot;, &quot;Good luck buddy!&quot;]"/>
   </properties>
  </object>
  <object id="19" name="selena" x="176" y="335.667" width="16" height="16">
   <properties>
    <property name="selena dialogue" value="[&quot;Oh, it's you.&quot;, &quot;As you can see, we are here to witness your skills as a debugger.&quot;, &quot;Now in front of you is a bug the guild members caught.&quot;, &quot;Like everyone said, debug it and win.&quot;, &quot;Good luck.&quot;]"/>
   </properties>
  </object>
  <object id="20" name="mira" x="256.333" y="320" width="16" height="16">
   <properties>
    <property name="mira dialogue" value="[&quot;Oh, it's you.&quot;, &quot;I always get worried whenever you go.&quot;, &quot;So, in front of you is a bug the guild members caught.&quot;, &quot;Do your best as a debugger and make us proud.&quot;, &quot;Good luck.&quot;]"/>
   </properties>
  </object>
 </objectgroup>
 <objectgroup id="3" name="bug objects" locked="1">
  <object id="12" name="sample bug" gid="1" x="208.083" y="224.167" width="16" height="16"/>
 </objectgroup>
</map>
